!!!!SEGMENT: s-uu--vok-mus-i-hs-22-4_forster-kaspar--intenderunt-arcum-insipientes.krn
!!!cenid: 16xx:1678
!!!COM: Förster, Kaspar
!!!COM-rismID: pe30006147
!!!CDT: ~1616-1673/02/02
!!!CNT: German
!!!OTL: Intenderunt arcum insipientes
!!!PDT: 1690
!!!AGN:
!!!SMS-siglum: S-Uu
!!!SMS-shelfmark: Vok. mus. i hs. 22:4
!!!SMS-shelfwork: W
!!!SMS-variant: Basso Continuo S-Uu Vok. mus. i hs. 22:4:04
!!!SMS-altvar: Basso Continuo S-Uu Vok. mus. i hs. 22:4:05
!!!NIFC-rismSourceID: 190008720
!!!NIFC-rismChildID: 190008720
!!!NIFC-islandoraID: none
!!!URL-pdf-islandora:
!!!URL-scan: https://www2.musik.uu.se/duben/presentationSource1.php?Select_Dnr=829 @EN{Scan on Academica} @PL{Skany w zewnętrznej bibliotece cyfrowej}
!!!IIIF:
!!!ONB-nifc: UWAGA: poszczególne partie dostępne po kliknięciu w „browse part”. Informacje nt stron tytułowych w opisie na stronie lub na RISM.
!!!AIN: 1 alto 1 bass 1 soprn 1 viole
!!!key: C
**kern	**dynam	**dynam	**kern	**text	**dynam	**kern	**text	**dynam	**kern	**text	**dynam
*part4	*part4	*part4	*part3	*part3	*part3	*part2	*part2	*part2	*part1	*part1	*part1
*staff4	*	*	*staff3	*staff3	*	*staff2	*staff2	*	*staff1	*staff1	*
*I"Violono	*	*	*I"Basso.	*	*	*I"Alto.	*	*	*I"Canto.	*	*
*I'b.c	*	*	*I'B	*	*	*I'A	*	*	*I'S	*	*
*Iviole	*	*	*Ibass	*	*	*Ialto	*	*	*Isoprn	*	*
*ICstr	*	*	*ICvox	*	*	*ICvox	*	*	*ICvox	*	*
*IGcont	*	*	*	*	*	*	*	*	*	*	*
*clefF4	*	*	*clefF4	*	*	*clefC3	*	*	*clefC1	*	*
*k[]	*	*	*k[]	*	*	*k[]	*	*	*k[]	*	*
*C:	*	*	*C:	*	*	*C:	*	*	*C:	*	*
*M2/1	*	*	*M2/1	*	*	*M2/1	*	*	*M2/1	*	*
*met(C)	*	*	*	*	*	*	*	*	*	*	*
=1-	=1-	=1-	=1-	=1-	=1-	=1-	=1-	=1-	=1-	=1-	=1-
!LO:TX:b:t=Intenderunt.	!	!	!	!	!	!	!	!	!	!	!
*	*	*	*met(C)	*	*	*met(C)	*	*	*met(C)	*	*
*all\right	*	*	*all\right	*	*	*all\right	*	*	*all\right	*	*
*2\right	*	*	*2\right	*	*	*2\right	*	*	*2\right	*	*
2C/	.	.	8C/	In-	.	1r	.	.	2r	.	.
.	.	.	8D/	-ten-	.	.	.	.	.	.	.
.	.	.	8E\	-de-	.	.	.	.	.	.	.
.	.	.	8C/	-ru(n)t	.	.	.	.	.	.	.
2BB/	.	.	4G\	ar-	.	.	.	.	8g\	In-	.
.	.	.	.	.	.	.	.	.	8a\	-ten-	.
!	!	!	!LO:TX:t=P:problem:kreska pseudotaktowa	!	!	!	!	!	!	!	!
.	.	.	4G\	-cŭm	.	.	.	.	8b\	-de-	.
!	!	!	!	!	!	!	!	!	!LO:TX:t=P:problem:kreska pseudotaktowa	!	!
.	.	.	.	.	.	.	.	.	8g/	-rŭnt	.
2AA/	.	.	2r	.	.	8c\	In-	.	4cc\	ar-	.
.	.	.	.	.	.	8d\	-ten-	.	.	.	.
.	.	.	.	.	.	8e\	-de-	.	4cc\	-cum	.
.	.	.	.	.	.	8c\	-rŭnt	.	.	.	.
4GG/	.	.	8r	.	.	4g\	ar-	.	8r	.	.
.	.	.	8G\	in-	.	.	.	.	8b\	in-	.
!LO:TX:t=P:problem:kreska pseudotaktowa	!	!	!	!	!	!LO:TX:t=P:problem:kreska pseudotaktowa	!	!	!	!	!
4G\	.	.	8G\	-si-	.	4g\	-cŭm	.	8b\	-si-	.
!	!	!	!LO:TX:t=P:problem:kreska pseudotaktowa	!	!	!	!	!	!LO:TX:t=P:problem:kreska pseudotaktowa	!	!
.	.	.	8G\	-pi-	.	.	.	.	8b\	-pi-	.
=2-	=2-	=2-	=2-	=2-	=2-	=2-	=2-	=2-	=2-	=2-	=2-
4E\	.	.	8E\	-en-	.	2r	.	.	8g/	-en-	.
.	.	.	8D/	-tes	.	.	.	.	8f/	-tes	.
4C/	.	.	8C/	pec-	.	.	.	.	8e/	pec-	.
.	.	.	8BB/	-ca-	.	.	.	.	8d/	-ca-	.
2AA/	.	.	4AA/	-to-	.	8r	.	.	4c/	-to-	.
.	.	.	.	.	.	8cc\	in-	.	.	.	.
!	!	!	!LO:TX:t=P:problem:kreska pseudotaktowa	!	!	!	!	!	!LO:TX:t=P:problem:kreska pseudotaktowa	!	!
.	.	.	4AA/	-res	.	8cc\	-si-	.	4c/	-res	.
!	!	!	!	!	!	!LO:TX:t=P:problem:kreska pseudotaktowa	!	!	!	!	!
.	.	.	.	.	.	8cc\	-pi-	.	.	.	.
2BB/	.	.	2BB/	ter-	.	8b\	-en-	.	2r	.	.
.	.	.	.	.	.	8a\	-tes	.	.	.	.
.	.	.	.	.	.	8g\	pec-	.	.	.	.
.	.	.	.	.	.	8f\	-ca-	.	.	.	.
2C/	.	.	8C/	-rae	.	4e\	-to-	.	8r	.	.
.	.	.	8C/	in-	.	.	.	.	8ee\	in-	.
!	!	!	!	!	!	!LO:TX:t=P:problem:kreska pseudotaktowa	!	!	!	!	!
.	.	.	8C/	-si-	.	4e\	-res	.	8ee\	-si-	.
!	!	!	!LO:TX:t=P:problem:kreska pseudotaktowa	!	!	!	!	!	!LO:TX:t=P:problem:kreska pseudotaktowa	!	!
.	.	.	8C/	-pi-	.	.	.	.	8ee\	-pi-	.
=3-	=3-	=3-	=3-	=3-	=3-	=3-	=3-	=3-	=3-	=3-	=3-
4BB/	.	.	8BB/	-en-	.	2r	.	.	8dd\	-en-	.
.	.	.	8AA/	-tes	.	.	.	.	8cc\	-tes	.
4GG/	.	.	8GG/	pec-	.	.	.	.	8b\	pec-	.
.	.	.	8FF/	-ca-	.	.	.	.	8a\	-ca-	.
2EE/	.	.	4EE/	-to-	.	8r	.	.	8g/	-to-	.
.	.	.	.	.	.	8e\	in-	.	8g/	-res	.
!	!	!	!LO:TX:t=P:problem:kreska pseudotaktowa	!	!	!	!	!	!	!	!
.	.	.	4EE/	-res	.	8e\	-si-	.	8g/	pec-	.
!	!	!	!	!	!	!	!	!	!LO:TX:t=P:problem:kreska pseudotaktowa	!	!
.	.	.	.	.	.	8e\	-pi-	.	8g/	-ca-	.
2FF/	.	.	4.FF/	pec-	.	8d\	-en-	.	4.a\	-to-	.
.	.	.	.	.	.	8c/	-tes	.	.	.	.
.	.	.	.	.	.	8c/	pec-	.	.	.	.
.	.	.	8FF/	-ca-	.	8B/	-ca-	.	8a\	-res	.
4GG/	.	.	4GG/	-to-	.	4.B/	-to-	.	2.g/	ter-	.
!LO:TX:t=P:problem:kreska pseudotaktowa	!	!	!	!	!	!	!	!	!	!	!
4C/	.	.	4C/	-res	.	.	.	.	.	.	.
!	!	!	!	!	!	!LO:TX:t=P:problem:kreska pseudotaktowa	!	!	!	!	!
.	.	.	.	.	.	8A/	-res	.	.	.	.
!	!	!	!LO:LB:g=original	!	!	!	!	!	!LO:LB:g=original	!	!
=4-	=4-	=4-	=4-	=4-	=4-	=4-	=4-	=4-	=4-	=4-	=4-
2D/	.	.	4D/	ter-	.	16A/LL	ter-	.	.	.	.
.	.	.	.	.	.	16G/	.	.	.	.	.
.	.	.	.	.	.	16A/	.	.	.	.	.
.	.	.	.	.	.	16B/JJ	.	.	.	.	.
.	.	.	4DD/	-rae	.	4A/	.	.	4f#X/	.	.
2GG/	.	.	8GG/	in-	.	4B/	-rae	.	4g/	-rae	.
.	.	.	8AA/	-te(n)-	.	.	.	.	.	.	.
!	!	!	!	!	!	!	!	!	!LO:TX:t=P:problem:kreska pseudotaktowa	!	!
.	.	.	8BB/	-de-	.	4r	.	.	4r	.	.
!	!	!	!	!	!	!LO:LB:g=original	!	!	!	!	!
!	!	!	!LO:TX:t=P:problem:kreska pseudotaktowa	!	!	!	!	!	!	!	!
.	.	.	8GG/	-ru(n)t	.	.	.	.	.	.	.
4C/	.	.	4C/	ar-	.	8c\	in-	.	2r	.	.
.	.	.	.	.	.	8d\	-ten-	.	.	.	.
4c\	.	.	4C/	-cŭm	.	8e\	-de-	.	.	.	.
.	.	.	.	.	.	8c\	-ru(n)t	.	.	.	.
!LO:TX:t=P:problem:2\right:global	!	!	!	!	!	!	!	!	!	!	!
2B\	.	.	8r	.	.	4g\	ar-	.	8g\	in-	.
.	.	.	8B\	in-	.	.	.	.	8a\	-ten-	.
!	!	!	!	!	!	!LO:TX:t=P:problem:kreska pseudotaktowa	!	!	!	!	!
.	.	.	8B\	-si-	.	4g\	-cu(m)	.	8b\	-de-	.
!	!	!	!LO:TX:t=P:problem:kreska pseudotaktowa	!	!	!	!	!	!LO:TX:t=P:problem:kreska pseudotaktowa	!	!
.	.	.	8B\	-pi-	.	.	.	.	8g/	-rŭnt	.
=5-	=5-	=5-	=5-	=5-	=5-	=5-	=5-	=5-	=5-	=5-	=5-
4A\	.	.	8A\	-en-	.	2r	.	.	4cc\	ar-	.
.	.	.	8A\	-tes	.	.	.	.	.	.	.
8G\L	.	.	8G\	pec-	.	.	.	.	4cc\	-cum	.
8F\J	.	.	8F\	-ca-	.	.	.	.	.	.	.
!	!	!	!	!	!	!	!	!	!LO:TX:t=P:problem:kreska pseudotaktowa	!	!
2E\	.	.	8E\	-to-	.	8r	.	.	2r	.	.
.	.	.	8E\	-res	.	8g\	in-	.	.	.	.
.	.	.	8E\	pec-	.	8g\	-si-	.	.	.	.
!	!	!	!LO:TX:t=P:problem:kreska pseudotaktowa	!	!	!LO:TX:t=P:problem:kreska pseudotaktowa	!	!	!	!	!
.	.	.	8E\	-ca-	.	8g\	-pi-	.	.	.	.
2F\	.	.	4.F\	-to-	.	8f\	-en-	.	2r	.	.
.	.	.	.	.	.	8e\	-tes	.	.	.	.
.	.	.	.	.	.	8e\	pec-	.	.	.	.
.	.	.	8F\	-res	.	8d\	-ca-	.	.	.	.
4G\	.	.	8G\	ter-	.	8d\	-to-	.	8r	.	.
.	.	.	8G\	-rae	.	16d\	-res	.	8dd\	in-	.
.	.	.	.	.	.	16b\	in-	.	.	.	.
4BB/	.	.	8BB/	pec-	.	8b\	-si-	.	8dd\	-si-	.
!	!	!	!	!	!	!LO:TX:t=P:problem:kreska pseudotaktowa	!	!	!LO:TX:t=P:problem:kreska pseudotaktowa	!	!
.	.	.	8BB/	-ca-	.	8b\	-pi-	.	8dd\	-pi-	.
=6-	=6-	=6-	=6-	=6-	=6-	=6-	=6-	=6-	=6-	=6-	=6-
2C/	.	.	4.C/	-to-	.	8a\	-en-	.	8cc\	-en-	.
.	.	.	.	.	.	8g\	-tes	.	8b\	-tes	.
.	.	.	.	.	.	8g\	pec-	.	8b\	pec-	.
.	.	.	8C/	-res	.	8f#X\	-ca-	.	8a\	-ca-	.
4D/	.	.	8D/L	ter-	.	16f#\LL	-to-	.	16a\LL	-to-	.
.	.	.	.	.	.	16g\	.	.	16b\	.	.
.	.	.	16C/L	.	.	16f#\	.	.	16a\	.	.
.	.	.	16BB/JJ	.	.	16g\JJ	.	.	16b\JJ	.	.
4AA/	.	.	8AA/L	.	.	8a\	.	.	8cc\	.	.
!	!	!	!	!	!	!	!	!	!LO:TX:t=P:problem:kreska pseudotaktowa	!	!
.	.	.	16GG/L	.	.	8a\	res	.	8b\	-res	.
!	!	!	!LO:SIC:v:t=custos EE	!	!	!	!	!	!	!	!
.	.	.	16FF/JJ	.	.	.	.	.	.	.	.
!	!	!	!LO:LB:g=original	!	!	!	!	!	!	!	!
2E\	.	.	4EE/	.	.	4.a\	ter-	.	16b\LL	ter-	.
.	.	.	.	.	.	.	.	.	16a\	.	.
.	.	.	.	.	.	.	.	.	16b\	.	.
.	.	.	.	.	.	.	.	.	16cc\JJ	.	.
.	.	.	4EE/	-rae	.	.	.	.	4b\	.	.
.	.	.	.	.	.	(8g#X\	-rae	.	.	.	.
!LO:TX:t=P:problem:kreska pseudotaktowa	!	!	!	!	!	!	!	!	!	!	!
2AA/	.	.	8AA/	in-	.	4a\)	.	.	4cc#X\	-rae	.
.	.	.	8BB/	-ten-	.	.	.	.	.	.	.
!	!	!	!	!	!	!	!	!	!LO:TX:t=P:problem:kreska pseudotaktowa	!	!
.	.	.	8C#X/	-de-	.	4r	.	.	4r	.	.
!	!	!	!LO:TX:t=P:problem:kreska pseudotaktowa	!	!	!	!	!	!	!	!
.	.	.	8AA/	-rŭnt	.	.	.	.	.	.	.
!	!	!	!	!	!	!LO:LB:g=original	!	!	!	!	!
=7-	=7-	=7-	=7-	=7-	=7-	=7-	=7-	=7-	=7-	=7-	=7-
2D/	.	.	4D/	ar-	.	8d\	in-	.	2r	.	.
.	.	.	.	.	.	8e\	-ten-	.	.	.	.
.	.	.	4D/	-cu(m)	.	8f#X\	-de-	.	.	.	.
.	.	.	.	.	.	8d\	-rŭnt	.	.	.	.
2BB/	.	.	8BB/	in-	.	4gny\	ar-	.	8g/	in-	.
.	.	.	8Cny/	-ten-	.	.	.	.	8a\	-ten-	.
!	!	!	!	!	!	!LO:TX:t=P:problem:kreska pseudotaktowa	!	!	!	!	!
.	.	.	8D/	-de-	.	4g\	-cum	.	8b\	-de-	.
!	!	!	!LO:TX:t=P:problem:kreska pseudotaktowa	!	!	!	!	!	!	!	!
.	.	.	8BB/	-ru(n)t	.	.	.	.	8g/	-rúnt	.
!	!	!	!	!	!	!	!	!	!LO:LB:g=original	!	!
4E\	.	.	4E\	ar-	.	8r	.	.	4ccny\	ar-	.
.	.	.	.	.	.	8g\	in-	.	.	.	.
!LO:TX:a:t=P:problem:# above	!	!	!	!	!	!	!	!	!	!	!
4F#X\	.	.	4F#X\	-cu(m)	.	8a\	-si-	.	4cc\	-cŭm	.
.	.	.	.	.	.	8a\	-pi-	.	.	.	.
!LO:SIC:v:t=custos F	!	!	!	!	!	!	!	!	!	!	!
2G\	.	.	8r	.	.	4d\	-en-	.	8r	.	.
.	.	.	8G\	in-	.	.	.	.	8b\	in-	.
!	!	!	!	!	!	!LO:TX:t=P:problem:kreska pseudotaktowa	!	!	!	!	!
.	.	.	8G\	-si-	.	4d\	-tes	.	8b\	-si-	.
!	!	!	!LO:TX:t=P:problem:kreska pseudotaktowa	!	!	!	!	!	!LO:TX:t=P:problem:kreska pseudotaktowa	!	!
.	.	.	8G\	-pi-	.	.	.	.	8b\	-pi-	.
!LO:LB:g=original	!	!	!	!	!	!	!	!	!	!	!
=8-	=8-	=8-	=8-	=8-	=8-	=8-	=8-	=8-	=8-	=8-	=8-
4F#X\	.	.	8F#X\	-en-	.	2r	.	.	8a\	-en-	.
.	.	.	8E\	-tes	.	.	.	.	8g/	-tes	.
4D/	.	.	8D/	pec-	.	.	.	.	8f#X/	pec-	.
.	.	.	8C/	-ca-	.	.	.	.	8e/	-ca-	.
2BB/	.	.	8BB/	-to-	.	8r	.	.	8d/L	-to-	.
.	.	.	8BB/	-res	.	8d\	in-	.	16e/L	.	.
.	.	.	.	.	.	.	.	.	16f#/JJ	.	.
.	.	.	8BB/	pec-	.	8d\	-si-	.	8g/	.	.
!	!	!	!	!	!	!	!	!	!LO:TX:t=P:problem:kreska pseudotaktowa	!	!
.	.	.	8BB/	-ca-	.	8d\	-pi-	.	8f#/	-res	.
2C/	.	.	4.C/	-to-	.	8c/	-en-	.	8e/L	ter-	.
!	!	!	!	!	!	!	!	!	!LO:TX:b:t=P:problem:# below	!	!
.	.	.	.	.	.	8B/	-tes	.	8f#X/J	.	.
.	.	.	.	.	.	8B/	pec-	.	2g/	.	.
.	.	.	8C/	-res	.	8A/	-ca-	.	.	.	.
2D/	.	.	(4D/	ter-	.	8B/	-to-	.	.	.	.
.	.	.	.	.	.	8A/	-res	.	.	.	.
!	!	!	!	!	!	!LO:TX:t=P:problem:kreska pseudotaktowa	!	!	!	!	!
.	.	.	4DD/)	.	.	4A/	ter-	.	(4f#X/	-rae	.
=9-	=9-	=9-	=9-	=9-	=9-	=9-	=9-	=9-	=9-	=9-	=9-
2GG/	.	.	2GG/	-rae	.	8B/	-rae	.	4g/)	.	.
.	.	.	.	.	.	8g\	in-	.	.	.	.
.	.	.	.	.	.	8g\	-si-	.	4r	.	.
.	.	.	.	.	.	8g\	-pi-	.	.	.	.
!	!	!	!	!	!	!	!	!	!LO:TX:t=P:problem:kreska pseudotaktowa	!	!
4AA/	.	.	2r	.	.	8fny\	-en-	.	2r	.	.
.	.	.	.	.	.	8f\	-tes	.	.	.	.
!LO:TX:t=P:problem:kreska pseudotaktowa	!	!	!	!	!	!	!	!	!	!	!
4BB/	.	.	.	.	.	8.f\	pec-	.	.	.	.
.	.	.	.	.	.	16e\	-ca-	.	.	.	.
!	!	!	!LO:LB:g=original	!	!	!LO:LB:g=original	!	!	!	!	!
4C/	.	.	1r	.	.	4.e\	-to-	.	8r	.	.
.	.	.	.	.	.	.	.	.	8g/	in-	.
4E\	.	.	.	.	.	.	.	.	8g/	-si-	.
.	.	.	.	.	.	8e\	-res	.	8g/	-pi-	.
4Fny\	.	.	.	.	.	4e\	pec-	.	8fny/	-en-	.
.	.	.	.	.	.	.	.	.	8f/	-tes	.
!	!	!	!	!	!	!LO:TX:t=P:problem:kreska pseudotaktowa	!	!	!	!	!
4G\	.	.	.	.	.	4d\	-ca-	.	8.f/	pec-	.
!	!	!	!	!	!	!	!	!	!LO:TX:t=P:problem:kreska pseudotaktowa	!	!
.	.	.	.	.	.	.	.	.	16e/	-ca-	.
=10-	=10-	=10-	=10-	=10-	=10-	=10-	=10-	=10-	=10-	=10-	=10-
4A\	.	.	1r	.	.	8d\	-to-	.	8e/	-to-	.
.	.	.	.	.	.	8c/	-res	.	8e/	-res	.
4E\	.	.	.	.	.	8g\	pec-	.	8cc\	pec-	.
.	.	.	.	.	.	8g\	-ca-	.	8b\	-ca-	.
2F\	.	.	.	.	.	(8f\L	-to-	.	(8a\L	-to-	.
.	.	.	.	.	.	8e\J)	.	.	8g\J)	.	.
.	.	.	.	.	.	(8d\L	-res	.	(8f/L	-res	.
!	!	!	!	!	!	!LO:TX:t=P:problem:kreska pseudotaktowa	!	!	!	!	!
.	.	.	.	.	.	8c\J)	.	.	8e/J)	.	.
!	!	!	!	!	!	!	!	!	!LO:LB:g=original	!	!
2G\	.	.	2r	.	.	4.c/	ter-	.	2d/	ter-	.
.	.	.	.	.	.	(8B/	-rae	.	.	.	.
!LO:TX:t=P:problem:kreska pseudotaktowa	!	!	!	!	!	!	!	!	!	!	!
2C/	.	.	8C/	In-	.	4c/)	.	.	4e/	-rae	.
.	.	.	8D/	-ten-	.	.	.	.	.	.	.
!	!	!	!	!	!	!	!	!	!LO:TX:t=P:problem:kreska pseudotaktowa	!	!
.	.	.	8E/	-de-	.	4r	.	.	4r	.	.
.	.	.	8C/	-ru(n)t	.	.	.	.	.	.	.
=11-	=11-	=11-	=11-	=11-	=11-	=11-	=11-	=11-	=11-	=11-	=11-
2BB/	.	.	4G\	ar-	.	2r	.	.	8g\	in-	.
.	.	.	.	.	.	.	.	.	8a\	-ten-	.
.	.	.	4G\	-cu(m)	.	.	.	.	8b\	-de-	.
.	.	.	.	.	.	.	.	.	8g/	-ru(n)t	.
!	!	!	!LO:TX:t=P:problem:kreska pseudotaktowa	!	!	!	!	!	!	!	!
2AA/	.	.	2r	.	.	8c\	in-	.	4cc\	ar-	.
.	.	.	.	.	.	8d\	-ten-	.	.	.	.
!	!	!	!	!	!	!	!	!	!LO:TX:t=P:problem:kreska pseudotaktowa	!	!
.	.	.	.	.	.	8e\	-de-	.	4cc\	-cu(m)	.
!	!	!	!	!	!	!LO:TX:t=P:problem:kreska pseudotaktowa	!	!	!	!	!
.	.	.	.	.	.	8c\	-runt	.	.	.	.
4GG/	.	.	8r	.	.	4g\	ar-	.	8r	.	.
.	.	.	8G\	in-	.	.	.	.	8b\	in-	.
4G\	.	.	8G\	-si-	.	4g\	-cu(m)	.	8b\	-si-	.
.	.	.	8G\	-pi-	.	.	.	.	8b\	-pi-	.
4E\	.	.	8E\	-en-	.	2r	.	.	8g/	-en-	.
.	.	.	8D/	-tes	.	.	.	.	8f/	-tes	.
4C/	.	.	8C/	pec-	.	.	.	.	8e/	pec-	.
!	!	!	!	!	!	!	!	!	!LO:TX:t=P:problem:kreska pseudotaktowa	!	!
.	.	.	8BB/	-ca-	.	.	.	.	8d/	-ca-	.
=12-	=12-	=12-	=12-	=12-	=12-	=12-	=12-	=12-	=12-	=12-	=12-
2AA/	.	.	4AA/	-to-	.	8r	.	.	4c/	-to-	.
.	.	.	.	.	.	8cc\	in-	.	.	.	.
.	.	.	4AA/	-res	.	8cc\	-si-	.	4c/	-res	.
.	.	.	.	.	.	8cc\	-pi-	.	.	.	.
!	!	!	!LO:TX:t=P:problem:kreska pseudotaktowa	!	!	!	!	!	!	!	!
2BB/	.	.	2BB/	ter-	.	8b\	-en-	.	2r	.	.
.	.	.	.	.	.	8a\	-tes	.	.	.	.
.	.	.	.	.	.	8g\	pec-	.	.	.	.
!	!	!	!	!	!	!LO:TX:t=P:problem:kreska pseudotaktowa	!	!	!	!	!
.	.	.	.	.	.	8f\	-ca-	.	.	.	.
2C/	.	.	8C/	-rae	.	4e\	-to-	.	8r	.	.
.	.	.	8C/	in-	.	.	.	.	8ee\	in-	.
.	.	.	8C/	-si-	.	4e\	-res	.	8ee\	-si-	.
.	.	.	8C/	-pi-	.	.	.	.	8ee\	-pi-	.
4BB/	.	.	8BB/	-en-	.	2r	.	.	8dd\	-en-	.
.	.	.	8AA/	-tes	.	.	.	.	8cc\	-tes	.
4GG/	.	.	8GG/	pec-	.	.	.	.	8b\	pec-	.
!	!	!	!LO:TX:t=P:problem:kreska pseudotaktowa	!	!	!	!	!	!LO:TX:t=P:problem:kreska pseudotaktowa	!	!
.	.	.	8FF/	-ca-	.	.	.	.	8a\	-ca-	.
!	!	!	!	!	!	!LO:LB:g=original	!	!	!	!	!
=13-	=13-	=13-	=13-	=13-	=13-	=13-	=13-	=13-	=13-	=13-	=13-
2EE/	.	.	4EE/	-to-	.	8r	.	.	8g/	-to-	.
.	.	.	.	.	.	8e\	in-	.	16g/	-res	.
.	.	.	.	.	.	.	.	.	16g/	in-	.
.	.	.	4EE/	-res	.	8e\	-si-	.	8g/	-si-	.
!	!	!	!	!	!	!	!	!	!LO:SIC:v:t=custos d	!	!
.	.	.	.	.	.	8e\	-pi-	.	8g/	-pi-	.
!	!	!	!	!	!	!	!	!	!LO:LB:g=original	!	!
2FF/	.	.	4.FF/	pec-	.	8d\	-en-	.	8f/	-en-	.
.	.	.	.	.	.	8c/	-tes	.	8e/	-tes	.
.	.	.	.	.	.	8c/	pec-	.	8e/	pec-	.
!	!	!	!	!	!	!LO:TX:t=P:problem:kreska pseudotaktowa	!	!	!LO:TX:t=P:problem:kreska pseudotaktowa	!	!
.	.	.	8FF/	-ca-	.	8B/	-ca-	.	8d/	-ca-	.
4GG/	.	.	4GG/	-to-	.	16B/LL	-to-	.	16d/LL	-to-	.
.	.	.	.	.	.	16c/	.	.	16e/	.	.
.	.	.	.	.	.	16B/	.	.	16d/	.	.
.	.	.	.	.	.	16c/JJ	.	.	16e/JJ	.	.
4DD/	.	.	4DD/	-res	.	8d\	.	.	8f/	.	.
.	.	.	.	.	.	8d\	-res	.	8e/	-res	.
!	!	!	!LO:LB:g=original	!	!	!	!	!	!	!	!
!LO:TX:t=P:problem:kreska pseudotaktowa	!	!	!LO:TX:t=P:problem:kreska pseudotaktowa	!	!	!	!	!	!	!	!
2AA/	.	.	2AA/	ter-	.	4.d\	ter-	.	16e/LL	ter-	.
.	.	.	.	.	.	.	.	.	16d/	.	.
.	.	.	.	.	.	.	.	.	16e/	.	.
.	.	.	.	.	.	.	.	.	16f/JJ	.	.
!	!	!	!	!	!	!	!	!	!LO:TX:t=P:problem:kreska pseudotaktowa	!	!
.	.	.	.	.	.	.	.	.	4e/	.	.
.	.	.	.	.	.	(8c#X\	-rae	.	.	.	.
=14-	=14-	=14-	=14-	=14-	=14-	=14-	=14-	=14-	=14-	=14-	=14-
2D/	.	.	4D\	-rae	.	4d\)	.	.	8f#X/	-rae	.
.	.	.	.	.	.	.	.	.	8dd\	in-	.
.	.	.	4r	.	.	4r	.	.	8dd\	-si-	.
.	.	.	.	.	.	.	.	.	8dd\	-pi-	.
2G\	.	.	8r	.	.	8r	.	.	4b\	-en-	.
.	.	.	8G\	in-	.	8d\	in-	.	.	.	.
!	!	!	!	!	!	!	!	!	!LO:TX:t=P:problem:kreska pseudotaktowa	!	!
.	.	.	8G\	-si-	.	8d\	-si-	.	4b\	-tes	.
!	!	!	!LO:TX:t=P:problem:kreska pseudotaktowa	!	!	!LO:TX:t=P:problem:kreska pseudotaktowa	!	!	!	!	!
.	.	.	8G\	-pi-	.	8d\	-pi-	.	.	.	.
2E\	.	.	8E\	-en-	.	8e\	-en-	.	8cc\	pec-	.
.	.	.	8E\	-tes	.	8e\	-tes	.	8cc\	-ca-	.
.	.	.	8E\	pec-	.	8e\	pec-	.	8cc\	-to-	.
.	.	.	8E\	-ca-	.	8e\	-ca-	.	8cc\	-res	.
8F\L	.	.	8Fny\	-to-	.	(16cny\LL	-to-	.	4.cc\	ter-	.
.	.	.	.	.	.	16d\JJ)	.	.	.	.	.
8C\J	.	.	8C/	-res	.	8e\	-res	.	.	.	.
!	!	!	!LO:TX:t=P:problem:kreska pseudotaktowa	!	!	!	!	!	!	!	!
4G\	.	.	4G\	ter-	.	4d\	ter-	.	.	.	.
!	!	!	!	!	!	!	!	!	!LO:TX:t=P:problem:kreska pseudotaktowa	!	!
.	.	.	.	.	.	.	.	.	(8b\	-rae,	.
=15-	=15-	=15-	=15-	=15-	=15-	=15-	=15-	=15-	=15-	=15-	=15-
2.C/	.	.	4C/	-rae	.	4e\	-rae	.	4cc\)	.	.
.	.	.	4r	.	.	4r	.	.	8cc\	Pa-	.
.	.	.	.	.	.	.	.	.	8cc\	-ra-	.
!	!	!	!	!	!	!LO:TX:t=P:problem:kreska pseudotaktowa	!	!	!	!	!
.	.	.	2r	.	.	2r	.	.	4cc\	-ve-	.
4C/	.	.	.	.	.	.	.	.	8cc\	-rŭnt	.
!	!	!	!	!	!	!	!	!	!LO:SIC:v:t=custos b	!	!
.	.	.	.	.	.	.	.	.	8cc\	sa-	.
!	!	!	!	!	!	!	!	!	!LO:LB:g=original	!	!
2G\	.	.	1r	.	.	2r	.	.	8b\L	-git-	.
.	.	.	.	.	.	.	.	.	16dd\L	.	.
.	.	.	.	.	.	.	.	.	16cc\JJ	.	.
.	.	.	.	.	.	.	.	.	8b\	.	.
.	.	.	.	.	.	.	.	.	8g/	-tas	.
2E\	.	.	.	.	.	4r	.	.	8cc\	sŭ-	.
.	.	.	.	.	.	.	.	.	8cc\	-as	.
.	.	.	.	.	.	8g\	Pa-	.	8c/	ut	.
!	!	!	!	!	!	!	!	!	!LO:TX:t=P:problem:kreska pseudotaktowa	!	!
.	.	.	.	.	.	8g\	-ra-	.	8c/	sa-	.
!	!	!	!	!	!	!LO:LB:g=original	!	!	!	!	!
=16-	=16-	=16-	=16-	=16-	=16-	=16-	=16-	=16-	=16-	=16-	=16-
2E\	.	.	1r	.	.	4g\	-ŭe-	.	8c/L	-git-	.
.	.	.	.	.	.	.	.	.	16d/L	.	.
.	.	.	.	.	.	.	.	.	16e/JJ	.	.
.	.	.	.	.	.	8g\	-runt	.	16fny\LL	.	.
.	.	.	.	.	.	.	.	.	16g\	.	.
.	.	.	.	.	.	8g\	sa-	.	16a\	.	.
.	.	.	.	.	.	.	.	.	16b\JJ	.	.
2C/	.	.	.	.	.	8e\L	-git-	.	8cc\	.	.
.	.	.	.	.	.	16g\L	.	.	8cc\	-tent	.
.	.	.	.	.	.	16f\JJ	.	.	.	.	.
.	.	.	.	.	.	8e\	.	.	8.cc\	in	.
!	!	!	!	!	!	!LO:TX:t=P:problem:kreska pseudotaktowa	!	!	!	!	!
.	.	.	.	.	.	8c/	-tas	.	.	.	.
!	!	!	!	!	!	!	!	!	!LO:TX:t=P:problem:kreska pseudotaktowa	!	!
.	.	.	.	.	.	.	.	.	16dd\	ob-	.
!LO:LB:g=original	!	!	!	!	!	!	!	!	!	!	!
2GG/	.	.	4r	.	.	8B/	su-	.	4b\	-scŭ-	.
.	.	.	.	.	.	8G/	-as	.	.	.	.
.	.	.	8G\	Pa-	.	8G/	ŭt	.	8b\	-ro	.
.	.	.	8G\	-ra-	.	8G/	sa-	.	8b\	sa-	.
2G\	.	.	4G\	-ve-	.	8G/L	-git-	.	8dd\	-git-	.
.	.	.	.	.	.	16A/L	.	.	8dd\	-tent	.
.	.	.	.	.	.	16B/JJ	.	.	.	.	.
.	.	.	8G\	-rŭnt	.	16c\LL	.	.	8.dd\	in	.
.	.	.	.	.	.	16d\	.	.	.	.	.
!	!	!	!LO:TX:t=P:problem:kreska pseudotaktowa	!	!	!	!	!	!	!	!
.	.	.	8G\	sa-	.	16e\	.	.	.	.	.
!	!	!	!	!	!	!LO:TX:t=P:problem:kreska pseudotaktowa	!	!	!LO:TX:t=P:problem:kreska pseudotaktowa	!	!
.	.	.	.	.	.	16f\JJ	.	.	16cc\	ob-	.
=17-	=17-	=17-	=17-	=17-	=17-	=17-	=17-	=17-	=17-	=17-	=17-
4E\	.	.	8E\L	-git-	.	8g\	.	.	8cc\	-scŭ-	.
.	.	.	16G\L	.	.	8g\	tent	.	8cc\	-ro	.
.	.	.	16F\JJ	.	.	.	.	.	.	.	.
4C/	.	.	8E\	.	.	8.g\	in	.	8ee\	in	.
.	.	.	8C/	-tas	.	.	.	.	8ee\	ob-	.
.	.	.	.	.	.	16a\	ob-	.	.	.	.
2GG/	.	.	8BB/	sŭ-	.	8b\	-scŭ-	.	8dd\	-scú-	.
.	.	.	8GG/	-as	.	8b\	-ro	.	8dd\	-ro	.
!	!	!	!	!	!	!	!	!	!LO:SIC:v:t=custos d	!	!
.	.	.	8GG/	ut	.	8B/	ŭt	.	4r	.	.
!	!	!	!	!	!	!	!	!	!LO:LB:g=original	!	!
!	!	!	!LO:TX:t=P:problem:kreska pseudotaktowa	!	!	!LO:TX:t=P:problem:kreska pseudotaktowa	!	!	!	!	!
.	.	.	8GG/	sa-	.	8B/	sa-	.	.	.	.
2GG/	.	.	8GG/L	-git-	.	8B/L	-git-	.	2r	.	.
.	.	.	16AA/L	.	.	16c/L	.	.	.	.	.
.	.	.	16BB/JJ	.	.	16d/JJ	.	.	.	.	.
.	.	.	16C\LL	.	.	16e\LL	.	.	.	.	.
!	!	!	!	!	!	!LO:TX:t=P:problem:# above	!	!	!	!	!
.	.	.	16D\	.	.	16f#X\	.	.	.	.	.
.	.	.	16E\	.	.	16g\	.	.	.	.	.
.	.	.	16F\JJ	.	.	16a\JJ	.	.	.	.	.
!	!	!	!LO:LB:g=original	!	!	!	!	!	!	!	!
4G\	.	.	8G\	.	.	8b\	.	.	4r	.	.
.	.	.	8G\	-tent	.	8b\	-tent	.	.	.	.
!LO:TX:a:t=P:problem:# above	!	!	!	!	!	!	!	!	!	!	!
8F#X\L	.	.	8F#X\	in	.	8a\	in	.	8d/	ŭt	.
!	!	!	!LO:TX:t=P:problem:kreska pseudotaktowa	!	!	!	!	!	!LO:TX:t=P:problem:kreska pseudotaktowa	!	!
8E\J	.	.	8E\	ob-	.	8g\	ob-	.	8d/	sa-	.
=18-	=18-	=18-	=18-	=18-	=18-	=18-	=18-	=18-	=18-	=18-	=18-
2D/	.	.	8D/	-scu-	.	4f#X\	-scŭ-	.	8d/L	-git-	.
.	.	.	8D/	-ro	.	.	.	.	16e/L	.	.
!	!	!	!	!	!	!	!	!	!LO:TX:b:t=P:problem:# below	!	!
.	.	.	.	.	.	.	.	.	16f#X/JJ	.	.
.	.	.	8D/	ŭt	.	4f#\	-ro	.	16g\LL	.	.
.	.	.	.	.	.	.	.	.	16a\	.	.
.	.	.	8D/	sa-	.	.	.	.	16b\	.	.
.	.	.	.	.	.	.	.	.	16cc\JJ	.	.
!LO:TX:t=P:problem:kreska pseudotaktowa	!	!	!	!	!	!	!	!	!	!	!
2DD/	.	.	8D/	-git-	.	2r	.	.	8dd\	.	.
.	.	.	8D/	-te(n)t	.	.	.	.	8ee\	-tent	.
.	.	.	8DD/	in	.	.	.	.	8ff#X\	in	.
!	!	!	!	!	!	!	!	!	!LO:TX:t=P:problem:kreska pseudotaktowa	!	!
.	.	.	8DD/	ob-	.	.	.	.	8ee\	ob-	.
!	!	!	!	!	!	!LO:LB:g=original	!	!	!	!	!
4GG/	.	.	(4GG/	-scu-	.	4r	.	.	16ee\LL	-scŭ-	.
.	.	.	.	.	.	.	.	.	16dd\	.	.
.	.	.	.	.	.	.	.	.	16ee\	.	.
.	.	.	.	.	.	.	.	.	16ff#\JJ	.	.
4AA/	.	.	4AA/)	.	.	(16a\LL	ut	.	4ee\	.	.
.	.	.	.	.	.	16b\JJ)	.	.	.	.	.
.	.	.	.	.	.	(16a\LL	sa-	.	.	.	.
.	.	.	.	.	.	16g\JJ)	.	.	.	.	.
2D/	.	.	4DD/	-ro	.	8f#X\	-git-	.	4dd\	-ro	.
.	.	.	.	.	.	8f#\	-tent	.	.	.	.
!	!	!	!LO:TX:t=P:problem:kreska pseudotaktowa	!	!	!	!	!	!	!	!
.	.	.	4r	.	.	8r	.	.	(16dd\LL	ŭt	.
.	.	.	.	.	.	.	.	.	16ee\JJ)	.	.
!	!	!	!	!	!	!LO:TX:t=P:problem:kreska pseudotaktowa	!	!	!	!	!
.	.	.	.	.	.	8f#\	sa-	.	(16dd\LL	sa-	.
!	!	!	!	!	!	!	!	!	!LO:TX:t=P:problem:kreska pseudotaktowa	!	!
.	.	.	.	.	.	.	.	.	16cc\JJ)	.	.
=19-	=19-	=19-	=19-	=19-	=19-	=19-	=19-	=19-	=19-	=19-	=19-
2G\	.	.	4r	.	.	4g\	-git-	.	8b\	-git-	.
.	.	.	.	.	.	.	.	.	8b\	-tent	.
.	.	.	(16G\LL	ŭt	.	4g\	-tent	.	(16b\LL	ŭt	.
.	.	.	16A\JJ)	.	.	.	.	.	16cc\JJ)	.	.
.	.	.	(16G\LL	sa-	.	.	.	.	(16b\LL	sa-	.
.	.	.	16Fny\JJ)	.	.	.	.	.	16a\JJ)	.	.
4.E\	.	.	4E\	-git-	.	4r	.	.	4g\	-git-	.
.	.	.	8E\	-tent	.	8r	.	.	8g\	-tent	.
!LO:TX:t=P:problem:kreska pseudotaktowa	!	!	!	!	!	!LO:TX:t=P:problem:kreska pseudotaktowa	!	!	!LO:TX:t=P:problem:kreska pseudotaktowa	!	!
8BB/	.	.	8BB/	sa-	.	8d\	sa-	.	8dd\	sa-	.
8C/L	.	.	8C/	-git-	.	8e\	-git-	.	8cc\	-git-	.
8D/	.	.	8D/	-te(n)t	.	8f#X\	-tent	.	8b\	-te(n)t	.
8E/	.	.	8E\	in	.	8g\	in	.	8b\	in	.
8C/J	.	.	8C/	ob-	.	8g\	ob-	.	8a\	ob-	.
!	!	!	!	!	!	!	!	!	!LO:TX:t=P:problem:2\right:global	!	!
2D/	.	.	2D/	-scŭ-	.	(4.g\	-scŭ-	.	2a\	-scŭ-	.
.	.	.	.	.	.	8f#X\)	.	.	.	.	.
=20-	=20-	=20-	=20-	=20-	=20-	=20-	=20-	=20-	=20-	=20-	=20-
*M3/2	*	*	*M3/2	*	*	*M3/2	*	*	*M3/2	*	*
*met(3/2)	*	*	*met(3/2)	*	*	*met(3/2)	*	*	*	*	*
!	!	!	!	!	!	!LO:TX:t=P:problem:2\right:global	!	!	!	!	!
*	*	*	*	*	*	*	*	*	*met(3/2)	*	*
1.GG	.	.	1.GG	-ro	.	2g\	ro	.	2b\	-ro	.
.	.	.	.	.	.	2g\	Rec-	.	2r	.	.
.	.	.	.	.	.	2g\	-tos	.	2r	.	.
!	!	!	!	!	!	!	!	!	!LO:LB:g=original	!	!
1.AA	.	.	00.r	.	.	2f#X\	cor-	.	1.r	.	.
.	.	.	.	.	.	2g\	-de	.	.	.	.
!	!	!	!	!	!	!LO:TX:t=P:problem:kreska pseudotaktowa	!	!	!	!	!
.	.	.	.	.	.	2a\	can-	.	.	.	.
=21-	=21-	=21-	=21-	=21-	=21-	=21-	=21-	=21-	=21-	=21-	=21-
1.BB	.	.	.	.	.	2d\	-tan-	.	2r	.	.
.	.	.	.	.	.	4e\	.	.	2dd\	Rec-	.
.	.	.	.	.	.	4fny\	.	.	.	.	.
.	.	.	.	.	.	4g\	.	.	2dd\	-tos	.
!	!	!	!	!	!	!LO:TX:t=P:problem:kreska pseudotaktowa	!	!	!	!	!
.	.	.	.	.	.	4f\	.	.	.	.	.
1.C	.	.	.	.	.	2e\	.	.	2cc\	cor-	.
.	.	.	.	.	.	2d\	-tes	.	2dd\	-de	.
!	!	!	!	!	!	!	!	!	!LO:TX:t=P:problem:kreska pseudotaktowa	!	!
.	.	.	.	.	.	2c/	can-	.	2ee\	can-	.
=22-	=22-	=22-	=22-	=22-	=22-	=22-	=22-	=22-	=22-	=22-	=22-
1.FF#X	.	.	.	.	.	2d\	-ta(n)-	.	2a\	-tan-	.
.	.	.	.	.	.	2d\	-tes	.	4b\	.	.
.	.	.	.	.	.	.	.	.	4cc\	.	.
.	.	.	.	.	.	2r	.	.	4dd\	.	.
!	!	!	!	!	!	!	!	!	!LO:TX:t=P:problem:kreska pseudotaktowa	!	!
.	.	.	.	.	.	.	.	.	4cc\	.	.
!	!	!	!	!	!	!LO:LB:g=original	!	!	!	!	!
2GG/	.	.	2r	.	.	2r	.	.	2b\	.	.
!	!	!	!LO:TX:t=P:problem:2\right:global	!	!	!	!	!	!	!	!
1G	.	.	2G\	Rec-	.	2r	.	.	2g/	-tes	.
.	.	.	2G\	-tos	.	2d\	can-	.	2b\	can-	.
!	!	!	!LO:LB:g=original	!	!	!	!	!	!	!	!
=23-	=23-	=23-	=23-	=23-	=23-	=23-	=23-	=23-	=23-	=23-	=23-
!LO:TX:a:t=P:problem:# above	!	!	!	!	!	!	!	!	!	!	!
1.F#X	.	.	2F#X\	cor-	.	2d\	-tan-	.	2a\	-tan-	.
.	.	.	2G\	-de	.	2d\	-tes	.	2.a\	-tes	.
!	!	!	!LO:TX:t=P:problem:kreska pseudotaktowa	!	!	!	!	!	!	!	!
.	.	.	2A\	can-	.	2d\	ca(n)-	.	.	.	.
.	.	.	.	.	.	.	.	.	4dd\	can-	.
1.E	.	.	2E\	-tan-	.	1.e	-tan-	.	1dd	-tan-	.
.	.	.	4F#X\	.	.	.	.	.	.	.	.
.	.	.	4G\	.	.	.	.	.	.	.	.
.	.	.	4A\	.	.	.	.	.	(2cc#X\	-tes	.
.	.	.	4G\	.	.	.	.	.	.	.	.
=24-	=24-	=24-	=24-	=24-	=24-	=24-	=24-	=24-	=24-	=24-	=24-
1.D	.	.	2F#X\	.	.	2A/	-tes	.	1dd)	.	.
.	.	.	2D/	tes	.	2d\	rec-	.	.	.	.
!	!	!	!LO:TX:t=P:problem:kreska pseudotaktowa	!	!	!	!	!	!LO:TX:t=P:problem:kreska pseudotaktowa	!	!
.	.	.	2D/	can-	.	2d\	-tos	.	2r	.	.
1.E	.	.	2E\	-ta(n)-	.	2c\	cor-	.	2r	.	.
.	.	.	2E\	-tes	.	2d\	-de	.	2r	.	.
.	.	.	2E\	ca(n)-	.	2e\	can-	.	2g/	can-	.
=25-	=25-	=25-	=25-	=25-	=25-	=25-	=25-	=25-	=25-	=25-	=25-
!LO:TX:a:t=P:problem:# above	!	!	!	!	!	!	!	!	!	!	!
1.F#X	.	.	2F#X\	-ta(n)-	.	2A/	-tan-	.	2a\	-tan-	.
.	.	.	2F#\	-tes	.	4B/	.	.	2a\	-tes	.
.	.	.	.	.	.	4c/	.	.	.	.	.
.	.	.	2F#\	laŭ-	.	4d/	.	.	2a\	can-	.
!	!	!	!	!	!	!LO:TX:t=P:problem:kreska pseudotaktowa	!	!	!	!	!
.	.	.	.	.	.	4c/	.	.	.	.	.
1.G	.	.	2.G\	-da-	.	2B/	.	.	2b\	-tan-	.
.	.	.	.	.	.	2G/	-tes	.	2b\	-tes	.
.	.	.	4G\	-bi-	.	.	.	.	.	.	.
!	!	!	!LO:TX:t=P:problem:kreska pseudotaktowa	!	!	!	!	!	!LO:TX:t=P:problem:kreska pseudotaktowa	!	!
.	.	.	2G\	-le	.	2g\	can-	.	2r	.	.
=26-	=26-	=26-	=26-	=26-	=26-	=26-	=26-	=26-	=26-	=26-	=26-
1.A	.	.	1A	can-	.	(2g\	-tan-	.	2r	.	.
.	.	.	.	.	.	1f#X)	.	.	2r	.	.
!	!	!	!	!	!	!	!	!	!LO:SIC:v:t=custos b	!	!
.	.	.	2A\	-ti-	.	.	.	.	2a\	can-	.
!	!	!	!	!	!	!	!	!	!LO:LB:g=original	!	!
1.G	.	.	2G\	-cŭm	.	2g\	-tes	.	2b\	-tan-	.
.	.	.	(4G\	et	.	2r	.	.	2b\	-tes	.
.	.	.	4A\)	.	.	.	.	.	.	.	.
!	!	!	!	!	!	!LO:TX:t=P:problem:kreska pseudotaktowa	!	!	!LO:TX:t=P:problem:kreska pseudotaktowa	!	!
.	.	.	(4G\	de-	.	2d\	can-	.	2b\	lau-	.
.	.	.	4Fny\)	.	.	.	.	.	.	.	.
=27-	=27-	=27-	=27-	=27-	=27-	=27-	=27-	=27-	=27-	=27-	=27-
1.E	.	.	1.E	-co-	.	2e\	-ta(n)-	.	2.cc#X\	-da-	.
.	.	.	.	.	.	2e\	-tes	.	.	.	.
.	.	.	.	.	.	.	.	.	4cc#\	-bi-	.
!	!	!	!	!	!	!	!	!	!LO:TX:t=P:problem:kreska pseudotaktowa	!	!
.	.	.	.	.	.	2e\	laŭ-	.	2cc#\	-le	.
1.D	.	.	2D/	-rŭm	.	2.f#X\	-da-	.	2.dd\	can-	.
.	.	.	(4D/	et	.	.	.	.	.	.	.
.	.	.	4E/)	.	.	4f#\	-bi-	.	4dd\	-ti-	.
!	!	!	!	!	!	!	!	!	!LO:TX:t=P:problem:kreska pseudotaktowa	!	!
.	.	.	(4D/	de-	.	2f#\	-le	.	2dd\	-cum	.
.	.	.	4C/)	.	.	.	.	.	.	.	.
!LO:LB:g=original	!	!	!LO:LB:g=original	!	!	!LO:LB:g=original	!	!	!	!	!
=28-	=28-	=28-	=28-	=28-	=28-	=28-	=28-	=28-	=28-	=28-	=28-
1.BB	.	.	2BB/	-co-	.	2.g#X\	can-	.	2dd\	et	.
.	.	.	2BB/	-rum	.	.	.	.	(4ee\	de-	.
.	.	.	.	.	.	4g#\	-ti-	.	4dd\	.	.
!	!	!	!LO:TX:t=P:problem:kreska pseudotaktowa	!	!	!	!	!	!	!	!
.	.	.	2BB/	de-	.	2g#\	-cŭm	.	4ee\	.	.
!	!	!	!	!	!	!	!	!	!LO:TX:t=P:problem:kreska pseudotaktowa	!	!
.	.	.	.	.	.	.	.	.	4dd\)	.	.
*col	*	*	*col	*	*	*	*	*	*col	*	*
1AA	.	.	1AA	-co-	.	2.a\	et	.	1ccny	-co-	.
.	.	.	.	.	.	4a\	de-	.	.	.	.
1D\	.	.	1D\	-rŭm	.	2a\	-co-	.	1b\	-rum	.
=29-	=29-	=29-	=29-	=29-	=29-	=29-	=29-	=29-	=29-	=29-	=29-
.	.	.	.	.	.	2a\	-rŭm	.	.	.	.
1E	.	.	1E	ual-	.	2.a\	val-	.	1b	ual-	.
.	.	.	.	.	.	(4g#X\	-de	.	.	.	.
*Xcol	*	*	*Xcol	*	*	*	*	*	*Xcol	*	*
1.AA	.	.	2AA/	-de	.	1a)	.	.	1cc#X	-de	.
.	.	.	2r	.	.	.	.	.	.	.	.
.	.	.	2A\	in	.	2r	.	.	2r	.	.
=30-	=30-	=30-	=30-	=30-	=30-	=30-	=30-	=30-	=30-	=30-	=30-
1.D	.	.	2.F#X\	ju-	.	0.r	.	.	1.r	.	.
.	.	.	4G\	-bi-	.	.	.	.	.	.	.
!	!	!	!LO:TX:t=P:problem:kreska pseudotaktowa	!	!	!	!	!	!	!	!
.	.	.	2A\	-lo	.	.	.	.	.	.	.
1.D	.	.	2.D\	ju-	.	.	.	.	2r	.	.
.	.	.	.	.	.	.	.	.	2r	.	.
.	.	.	4E\	-bi-	.	.	.	.	.	.	.
!	!	!	!	!	!	!	!	!	!LO:TX:t=P:problem:kreska pseudotaktowa	!	!
.	.	.	4F#X\	-lo	.	.	.	.	2dd\	in	.
.	.	.	4D\	di-	.	.	.	.	.	.	.
=31-	=31-	=31-	=31-	=31-	=31-	=31-	=31-	=31-	=31-	=31-	=31-
1.GG	.	.	2G\	-cen-	.	1.r	.	.	2.b\	Ju-	.
.	.	.	2G\	-tes	.	.	.	.	.	.	.
.	.	.	.	.	.	.	.	.	4ccny\	-bi-	.
!	!	!	!	!	!	!	!	!	!LO:TX:t=P:problem:kreska pseudotaktowa	!	!
.	.	.	2GG/	in	.	.	.	.	2dd\	-lo	.
1BB	.	.	2.BB/	jŭ-	.	2r	.	.	2.g/	iu-	.
.	.	.	.	.	.	2r	.	.	.	.	.
.	.	.	4C/	-bi-	.	.	.	.	4a\	-bi-	.
2GG/	.	.	4D/	-lo	.	2gny\	In	.	4b\	-lo	.
!	!	!	!LO:TX:t=P:problem:kreska pseudotaktowa	!	!	!	!	!	!LO:TX:t=P:problem:kreska pseudotaktowa	!	!
.	.	.	4BB/	di-	.	.	.	.	4dd\	di-	.
=32-	=32-	=32-	=32-	=32-	=32-	=32-	=32-	=32-	=32-	=32-	=32-
1.C	.	.	2C/	-cen-	.	2.e\	Jŭ-	.	2cc\	-cen-	.
.	.	.	2C/	-tes	.	.	.	.	2cc\	-tes	.
.	.	.	.	.	.	4fny\	-bi-	.	.	.	.
!	!	!	!	!	!	!LO:TX:t=P:problem:kreska pseudotaktowa	!	!	!	!	!
.	.	.	2C/	di-	.	2g\	-lo	.	2ee\	di-	.
!	!	!	!	!	!	!	!	!	!LO:SIC:v:t=custos ee	!	!
1.D	.	.	1.D	-cen-	.	2.B/	ju-	.	1.ffny	-cen-	.
.	.	.	.	.	.	4c/	-bi-	.	.	.	.
.	.	.	.	.	.	4d\	-lo	.	.	.	.
!	!	!	!	!	!	!LO:TX:t=P:problem:kreska pseudotaktowa	!	!	!	!	!
.	.	.	.	.	.	4B/	di-	.	.	.	.
!	!	!	!	!	!	!	!	!	!LO:LB:g=original	!	!
=33-	=33-	=33-	=33-	=33-	=33-	=33-	=33-	=33-	=33-	=33-	=33-
1C	.	.	1C	-tes	.	2c/	-cen-	.	1ee	-tes	.
.	.	.	.	.	.	2c/	-tes	.	.	.	.
!	!	!	!	!	!	!	!	!	!LO:TX:t=P:problem:kreska pseudotaktowa	!	!
2AA/	.	.	2AA/	in	.	2f\	in	.	2cc\	in	.
1.BB-X	.	.	2.BB-X/	ju-	.	2.f\	iŭ-	.	2.dd\	ju-	.
.	.	.	4BB-/	-bi-	.	4f\	-bi-	.	4dd\	bi-	.
!	!	!	!	!	!	!	!	!	!LO:TX:t=P:problem:kreska pseudotaktowa	!	!
.	.	.	2BB-/	-lo	.	2f\	-lo	.	2dd\	-lo	.
!	!	!	!LO:LB:g=original	!	!	!	!	!	!	!	!
=34-	=34-	=34-	=34-	=34-	=34-	=34-	=34-	=34-	=34-	=34-	=34-
*col	*	*	*	*	*	*	*	*	*	*	*
2GG/	.	.	2GG/	di-	.	(4g\	di-	.	2dd\	di-	.
.	.	.	.	.	.	4f\)	.	.	.	.	.
1AA	.	.	1AA	-cen-	.	1e	-cen-	.	2.dd\	-cen-	.
.	.	.	.	.	.	.	.	.	(4cc#X\	-tes	.
*Xcol	*	*	*	*	*	*	*	*	*	*	*
1.D	.	.	2D/	-tes	.	2f#X\	-tes	.	2dd\)	.	.
.	.	.	2r	.	.	2r	.	.	2dd\	rec-	.
!	!	!	!	!	!	!	!	!	!LO:TX:t=P:problem:kreska pseudotaktowa	!	!
.	.	.	2r	.	.	2r	.	.	2dd\	-tos	.
=35-	=35-	=35-	=35-	=35-	=35-	=35-	=35-	=35-	=35-	=35-	=35-
!	!	!	!	!	!	!LO:SIC:v:t=custos a	!	!	!	!	!
1.E	.	.	00.r	.	.	1.r	.	.	2ccny\	cor-	.
.	.	.	.	.	.	.	.	.	2dd\	-de	.
!	!	!	!	!	!	!	!	!	!LO:TX:t=P:problem:kreska pseudotaktowa	!	!
.	.	.	.	.	.	.	.	.	2ee\	can-	.
!LO:TX:t=P:problem:# above	!	!	!	!	!	!LO:LB:g=original	!	!	!	!	!
1.F#X	.	.	.	.	.	2r	.	.	2a\	-tan-	.
.	.	.	.	.	.	2a\	rec-	.	(4b\	.	.
.	.	.	.	.	.	.	.	.	4cc\	.	.
.	.	.	.	.	.	2a\	-tos	.	4dd\	.	.
!	!	!	!	!	!	!	!	!	!LO:TX:t=P:problem:kreska pseudotaktowa	!	!
.	.	.	.	.	.	.	.	.	4cc\)	.	.
=36-	=36-	=36-	=36-	=36-	=36-	=36-	=36-	=36-	=36-	=36-	=36-
1.G	.	.	.	.	.	2g\	cor-	.	2b\	.	.
.	.	.	.	.	.	2a\	-de	.	2a\	-tes	.
!	!	!	!	!	!	!LO:TX:t=P:problem:kreska pseudotaktowa	!	!	!	!	!
.	.	.	.	.	.	2b\	can-	.	2g/	ca(n)-	.
1.C#X	.	.	.	.	.	2e\	-tan-	.	2a\	-ta(n)-	.
.	.	.	.	.	.	4f#X\	.	.	2a\	-tes	.
.	.	.	.	.	.	4g\	.	.	.	.	.
!	!	!	!	!	!	!	!	!	!LO:TX:t=P:problem:kreska pseudotaktowa	!	!
.	.	.	.	.	.	4a\	.	.	2r	.	.
.	.	.	.	.	.	4g\	.	.	.	.	.
=37-	=37-	=37-	=37-	=37-	=37-	=37-	=37-	=37-	=37-	=37-	=37-
1.D	.	.	2r	.	.	2f#X\	.	.	2r	.	.
.	.	.	2D/	rec-	.	2d\	-tes	.	2r	.	.
!	!	!	!	!	!	!LO:TX:t=P:problem:kreska pseudotaktowa	!	!	!	!	!
.	.	.	2D/	-tos	.	2f#X\	can-	.	2a\	can-	.
1.C#X	.	.	2C#X/	cor-	.	2e\	-tan-	.	2a\	-tan-	.
.	.	.	2D/	-de	.	2.e\	-tes	.	2a\	-tes	.
!	!	!	!	!	!	!	!	!	!LO:TX:t=P:problem:kreska pseudotaktowa	!	!
.	.	.	2C#X/	ca(n)-	.	.	.	.	2a\	can-	.
.	.	.	.	.	.	4a\	ca(n)-	.	.	.	.
=38-	=38-	=38-	=38-	=38-	=38-	=38-	=38-	=38-	=38-	=38-	=38-
!	!	!	!	!	!	!	!	!	!LO:SIC:v:t=custos e	!	!
1.BBny	.	.	1.BBny	-tan-	.	1a	-ta(n)-	.	1.b	-tan-	.
.	.	.	.	.	.	(2g#X\	-tes	.	.	.	.
!	!	!	!	!	!	!	!	!	!LO:LB:g=original	!	!
1.AA	.	.	2AA/	-tes	.	1a)	.	.	2e/	-tes	.
.	.	.	2r	.	.	.	.	.	2a\	rec-	.
!	!	!	!	!	!	!LO:TX:t=P:problem:kreska pseudotaktowa	!	!	!LO:TX:t=P:problem:kreska pseudotaktowa	!	!
.	.	.	2AA/	can-	.	2r	.	.	2a\	-tos	.
=39-	=39-	=39-	=39-	=39-	=39-	=39-	=39-	=39-	=39-	=39-	=39-
1.BB	.	.	2BB/	-ta(n)-	.	2r	.	.	2g\	cor-	.
.	.	.	2BB/	-tes	.	2r	.	.	2a\	-de	.
!	!	!	!LO:TX:t=P:problem:kreska pseudotaktowa	!	!	!	!	!	!LO:TX:t=P:problem:kreska pseudotaktowa	!	!
.	.	.	2BB/	laŭ-	.	2d\	can-	.	2b\	can-	.
1.C#X	.	.	2.C#X/	-da-	.	2e\	-tan-	.	2e/	-tan-	.
.	.	.	.	.	.	2e\	-tes	.	4f#X/	.	.
.	.	.	4C#/	-bi-	.	.	.	.	4g/	.	.
!	!	!	!	!	!	!LO:TX:t=P:problem:kreska pseudotaktowa	!	!	!	!	!
.	.	.	2C#/	-le	.	2e\	can-	.	4a/	.	.
!	!	!	!	!	!	!	!	!	!LO:TX:t=P:problem:kreska pseudotaktowa	!	!
.	.	.	.	.	.	.	.	.	4g/	.	.
=40-	=40-	=40-	=40-	=40-	=40-	=40-	=40-	=40-	=40-	=40-	=40-
1.D	.	.	2.D/	ca(n)-	.	2A/	-ta(n)-	.	2f#X/	.	.
.	.	.	.	.	.	2A/	-tes	.	2d/	-tes	.
.	.	.	4D/	-ti-	.	.	.	.	.	.	.
!	!	!	!	!	!	!	!	!	!LO:TX:t=P:problem:kreska pseudotaktowa	!	!
.	.	.	4D/	-cu(m)	.	2r	.	.	2dd\	can-	.
.	.	.	4D/	laŭ-	.	.	.	.	.	.	.
1.E	.	.	2.E\	-da-	.	2r	.	.	(2dd\	-tan-	.
.	.	.	.	.	.	2r	.	.	1cc#X)	.	.
.	.	.	4E\	-bi-	.	.	.	.	.	.	.
!	!	!	!LO:TX:t=P:problem:kreska pseudotaktowa	!	!	!	!	!	!	!	!
.	.	.	2E\	le	.	2e\	can-	.	.	.	.
=41-	=41-	=41-	=41-	=41-	=41-	=41-	=41-	=41-	=41-	=41-	=41-
1.D	.	.	2.D/	ca(n)-	.	2f#X\	-tan-	.	2dd\	-tes	.
.	.	.	.	.	.	2f#\	-tes	.	2r	.	.
.	.	.	4E\	-ti-	.	.	.	.	.	.	.
!	!	!	!	!	!	!	!	!	!LO:TX:t=P:problem:kreska pseudotaktowa	!	!
.	.	.	4D/	-cu(m)	.	2f#\	laŭ-	.	2a\	can-	.
!	!	!	!LO:SIC:v:t=custos BB	!	!	!	!	!	!	!	!
.	.	.	4Cny/	in	.	.	.	.	.	.	.
!	!	!	!LO:LB:g=original	!	!	!LO:LB:g=original	!	!	!	!	!
1.BB	.	.	1BB	Jù-	.	2.g#X\	-daŭ-	.	2b\	-tan-	.
.	.	.	.	.	.	.	.	.	2b\	-tes	.
.	.	.	.	.	.	4g#\	-bi-	.	.	.	.
!	!	!	!	!	!	!LO:TX:t=P:problem:kreska pseudotaktowa	!	!	!LO:TX:t=P:problem:kreska pseudotaktowa	!	!
.	.	.	2BB/	-bi-	.	2g#\	-le	.	2b\	laŭ-	.
=42-	=42-	=42-	=42-	=42-	=42-	=42-	=42-	=42-	=42-	=42-	=42-
1.AA	.	.	1AA	-lo	.	2.a\	can-	.	2.cc#X\	-da-	.
.	.	.	.	.	.	4b\	-ti-	.	4cc#\	-bi-	.
!	!	!	!	!	!	!	!	!	!LO:TX:t=P:problem:kreska pseudotaktowa	!	!
.	.	.	2AA/	in	.	4a\	-cu(m)	.	2cc#\	-le	.
!	!	!	!	!	!	!LO:TX:t=P:problem:kreska pseudotaktowa	!	!	!	!	!
.	.	.	.	.	.	4gny\	in	.	.	.	.
1.D	.	.	2.D/	Ju-	.	2.f#X\	jŭ-	.	2.dd\	can-	.
.	.	.	4D/	-bi-	.	4f#\	-bi-	.	4ee\	-ti-	.
!	!	!	!LO:TX:t=P:problem:kreska pseudotaktowa	!	!	!	!	!	!	!	!
.	.	.	2D/	-lo	.	4f#\	-lo	.	4dd\	-cu(m)	.
!	!	!	!	!	!	!LO:TX:t=P:problem:kreska pseudotaktowa	!	!	!	!	!
.	.	.	.	.	.	4f#\	in	.	4cc#\	in	.
=43-	=43-	=43-	=43-	=43-	=43-	=43-	=43-	=43-	=43-	=43-	=43-
1.GG	.	.	2.GG/	Ju-	.	2.g\	jŭ-	.	2.b\	jŭ-	.
.	.	.	4GG/	-bi-	.	4g\	-bi-	.	4b\	-bi-	.
.	.	.	2GG/	-lo	.	2g\	-lo	.	2b\	-lo	.
!LO:LB:g=original	!	!	!	!	!	!	!	!	!LO:PB:g=original	!	!
*col	*	*	*	*	*	*	*	*	*	*	*
2Cny/	.	.	2C/	di-	.	2g\	di-	.	2a\	di-	.
1D	.	.	1D	-ce(n)-	.	2.g\	-cen-	.	1a	-cen-	.
.	.	.	.	.	.	(4f#X\	-tes	.	.	.	.
*Xcol	*	*	*	*	*	*	*	*	*	*	*
=44-	=44-	=44-	=44-	=44-	=44-	=44-	=44-	=44-	=44-	=44-	=44-
1.GG	.	.	2GG/	-tes	.	2g\)	.	.	2b\	-tes	.
.	.	.	2r	.	.	2g\	rec-	.	2r	.	.
.	.	.	2r	.	.	2g\	-tos	.	2r	.	.
1.AA	.	.	00.r	.	.	2f#X\	cor-	.	1.r	.	.
.	.	.	.	.	.	2g\	-de	.	.	.	.
!	!	!	!	!	!	!LO:TX:t=P:problem:kreska pseudotaktowa	!	!	!	!	!
.	.	.	.	.	.	2a\	can-	.	.	.	.
=45-	=45-	=45-	=45-	=45-	=45-	=45-	=45-	=45-	=45-	=45-	=45-
1.BB	.	.	.	.	.	2d\	-ta(n)-	.	2r	.	.
.	.	.	.	.	.	4e\	.	.	2dd\	rec-	.
.	.	.	.	.	.	4fny\	.	.	.	.	.
!	!	!	!	!	!	!	!	!	!LO:TX:t=P:problem:kreska pseudotaktowa	!	!
.	.	.	.	.	.	4g\	.	.	2dd\	-tos	.
.	.	.	.	.	.	4f\	.	.	.	.	.
1.C	.	.	.	.	.	2e\	.	.	2ccny\	cor-	.
.	.	.	.	.	.	2d\	-tes	.	2dd\	-de	.
!	!	!	!	!	!	!	!	!	!LO:TX:t=P:problem:kreska pseudotaktowa	!	!
.	.	.	.	.	.	2c/	can-	.	2ee\	can-	.
=46-	=46-	=46-	=46-	=46-	=46-	=46-	=46-	=46-	=46-	=46-	=46-
1.FF#X	.	.	.	.	.	2d\	-tan-	.	2a\	-tan-	.
.	.	.	.	.	.	2d\	-tes	.	4b\	.	.
.	.	.	.	.	.	.	.	.	4cc\	.	.
!	!	!	!	!	!	!LO:SIC:v:t=custos d	!	!	!	!	!
.	.	.	.	.	.	2r	.	.	4dd\	.	.
!	!	!	!	!	!	!	!	!	!LO:TX:t=P:problem:kreska pseudotaktowa	!	!
.	.	.	.	.	.	.	.	.	4cc\	.	.
!	!	!	!	!	!	!LO:PB:g=original	!	!	!	!	!
*col	*	*	*	*	*	*	*	*	*	*	*
2GG/	.	.	2r	.	.	2r	.	.	2b\	.	.
1G	.	.	2G\	rec-	.	2r	.	.	2g/	-tes	.
.	.	.	2G\	-tos	.	2d\	can-	.	2b\	can-	.
*Xcol	*	*	*	*	*	*	*	*	*	*	*
=47-	=47-	=47-	=47-	=47-	=47-	=47-	=47-	=47-	=47-	=47-	=47-
1.F#X	.	.	2F#X\	cor-	.	2d\	-ta(n)-	.	2a\	-tan-	.
.	.	.	2G\	-de	.	2d\	-tes	.	2.a\	-tes	.
!	!	!	!	!	!	!LO:TX:t=P:problem:kreska pseudotaktowa	!	!	!	!	!
.	.	.	2A\	ca(n)-	.	2d\	can-	.	.	.	.
!	!	!	!	!	!	!	!	!	!LO:TX:t=P:problem:kreska pseudotaktowa	!	!
.	.	.	.	.	.	.	.	.	4dd\	can-	.
1.E	.	.	2E\	-tan-	.	1.e	-ta(n)-	.	1dd	-ta(n)-	.
.	.	.	4F#X\	.	.	.	.	.	.	.	.
!	!	!	!LO:TX:t=P:problem:# above	!	!	!	!	!	!	!	!
.	.	.	4G#X\	.	.	.	.	.	.	.	.
.	.	.	4A\	.	.	.	.	.	(2cc#X\	-tes	.
!	!	!	!LO:TX:t=P:problem:kreska pseudotaktowa	!	!	!	!	!	!	!	!
.	.	.	4G#\	.	.	.	.	.	.	.	.
=48-	=48-	=48-	=48-	=48-	=48-	=48-	=48-	=48-	=48-	=48-	=48-
1.D	.	.	2F#X\	.	.	2A/	-tes	.	1dd)	.	.
.	.	.	2D/	-tes	.	2d\	rec-	.	.	.	.
!	!	!	!	!	!	!LO:TX:t=P:problem:kreska pseudotaktowa	!	!	!	!	!
.	.	.	2D/	can-	.	2d\	-tos	.	2r	.	.
1.E	.	.	2E\	-tan-	.	2c\	cor-	.	2r	.	.
.	.	.	2E\	-tes	.	2d\	-de	.	2r	.	.
!	!	!	!LO:SIC:v:t=custos F	!	!	!	!	!	!	!	!
.	.	.	2E\	can-	.	2e\	can-	.	2g/	can-	.
!	!	!	!LO:LB:g=original	!	!	!	!	!	!	!	!
=49-	=49-	=49-	=49-	=49-	=49-	=49-	=49-	=49-	=49-	=49-	=49-
1.F#X	.	.	2F#X\	-tan-	.	2A/	-tan-	.	2a\	-ta(n)-	.
.	.	.	2F#\	-tes	.	4B/	.	.	2a\	-tes	.
.	.	.	.	.	.	4c/	.	.	.	.	.
.	.	.	2F#\	laŭ-	.	4d/	.	.	2a\	can-	.
.	.	.	.	.	.	4c/	.	.	.	.	.
1.G	.	.	2.Gny\	-da-	.	2B/	.	.	2b\	-tan-	.
.	.	.	.	.	.	2G/	tes	.	2b\	-tes	.
.	.	.	4G\	-bi-	.	.	.	.	.	.	.
.	.	.	2G\	-le	.	2g\	can-	.	2r	.	.
!	!	!	!	!	!	!	!	!	!LO:LB:g=original	!	!
=50-	=50-	=50-	=50-	=50-	=50-	=50-	=50-	=50-	=50-	=50-	=50-
1.A	.	.	1A	can-	.	2g\	-tan-	.	2r	.	.
.	.	.	.	.	.	(1f#X	-tes	.	2r	.	.
.	.	.	2A\	-ti-	.	.	.	.	2a\	can-	.
1.G	.	.	2G\	-cŭm	.	2g\)	.	.	2b\	-ta(n)-	.
.	.	.	(4G\	et	.	2r	.	.	2b\	-tes	.
.	.	.	4A\)	.	.	.	.	.	.	.	.
!	!	!	!	!	!	!LO:TX:t=P:problem:kreska pseudotaktowa	!	!	!LO:TX:t=P:problem:kreska pseudotaktowa	!	!
.	.	.	(4G\	de-	.	2d\	can-	.	2b\	lau-	.
.	.	.	4Fny\)	.	.	.	.	.	.	.	.
=51-	=51-	=51-	=51-	=51-	=51-	=51-	=51-	=51-	=51-	=51-	=51-
1.E	.	.	1.E	-co-	.	2e\	-ta(n)-	.	2.cc#X\	-da-	.
.	.	.	.	.	.	2e\	-tes	.	.	.	.
.	.	.	.	.	.	.	.	.	4cc#\	-bi-	.
!	!	!	!	!	!	!	!	!	!LO:TX:t=P:problem:kreska pseudotaktowa	!	!
.	.	.	.	.	.	2e\	laŭ-	.	2cc#\	-le	.
1.D	.	.	2D/	-rŭm	.	2.f#X\	-da-	.	2.dd\	can-	.
.	.	.	(4D\	et	.	.	.	.	.	.	.
.	.	.	4E\)	.	.	4f#\	-bi-	.	4dd\	-ti-	.
!	!	!	!	!	!	!	!	!	!LO:TX:t=P:problem:kreska pseudotaktowa	!	!
.	.	.	(4D/	de-	.	2f#\	-le	.	2dd\	-cu(m)	.
.	.	.	4C/)	.	.	.	.	.	.	.	.
!	!	!	!	!	!	!LO:LB:g=original	!	!	!	!	!
=52-	=52-	=52-	=52-	=52-	=52-	=52-	=52-	=52-	=52-	=52-	=52-
1.BB	.	.	2BB/	-co-	.	2.g#X\	can-	.	2dd\	et	.
.	.	.	2BB/	-rum	.	.	.	.	4ee\	de-	.
.	.	.	.	.	.	4g#\	-ti-	.	4dd\	.	.
.	.	.	2BB/	de-	.	2g#\	-cŭm	.	4ee\	.	.
!	!	!	!	!	!	!	!	!	!LO:TX:t=P:problem:kreska pseudotaktowa	!	!
.	.	.	.	.	.	.	.	.	4dd\	.	.
*col	*	*	*col	*	*	*	*	*	*col	*	*
1AA	.	.	1AA	-co-	.	2.a\	et	.	1ccny	-co-	.
.	.	.	.	.	.	4a\	de-	.	.	.	.
1D\	.	.	1D\	-rŭm	.	2a\	-co-	.	1b\	-rum	.
=53-	=53-	=53-	=53-	=53-	=53-	=53-	=53-	=53-	=53-	=53-	=53-
.	.	.	.	.	.	2a\	-ru(m)	.	.	.	.
1E	.	.	1E	val-	.	2.a\	val-	.	1b	val-	.
.	.	.	.	.	.	(4g#X\	-de	.	.	.	.
*Xcol	*	*	*Xcol	*	*	*	*	*	*Xcol	*	*
1.AA	.	.	1AA	-de	.	1a)	.	.	1cc#X	-de	.
!	!	!	!	!	!	!	!	!	!LO:TX:t=P:problem:kreska pseudotaktowa	!	!
.	.	.	2AA/	in	.	2a\	in	.	2r	.	.
=54-	=54-	=54-	=54-	=54-	=54-	=54-	=54-	=54-	=54-	=54-	=54-
1.D	.	.	2.D/	ju-	.	2.f#X\	jù-	.	2r	.	.
.	.	.	.	.	.	.	.	.	2r	.	.
.	.	.	4D/	-bi-	.	4gny\	-bi-	.	.	.	.
.	.	.	4D/	-lo	.	4a\	-lo	.	2dd\	in	.
!	!	!	!LO:SIC:v:t=custos GG	!	!	!	!	!	!	!	!
.	.	.	4D/	in	.	4f#X\	di-	.	.	.	.
!	!	!	!LO:PB:g=original	!	!	!	!	!	!	!	!
1.GG	.	.	2.GG/	Ju-	.	2g\	-cen-	.	2.b\	ju-	.
.	.	.	.	.	.	2.g\	-tes	.	.	.	.
.	.	.	4GG/	-bi-	.	.	.	.	4ccny\	-bi-	.
.	.	.	4GG/	-lo	.	.	.	.	4dd\	-lo	.
!	!	!	!LO:TX:t=P:problem:kreska pseudotaktowa	!	!	!LO:TX:t=P:problem:kreska pseudotaktowa	!	!	!LO:TX:t=P:problem:kreska pseudotaktowa	!	!
.	.	.	4GG/	di-	.	4g\	di-	.	4b\	di-	.
=55-	=55-	=55-	=55-	=55-	=55-	=55-	=55-	=55-	=55-	=55-	=55-
1C	.	.	2C/	-cen-	.	2e\	-cen-	.	2cc\	-cen-	.
.	.	.	2C/	-tes	.	2e\	-tes	.	2cc\	-tes	.
!	!	!	!LO:TX:t=P:problem:kreska pseudotaktowa	!	!	!	!	!	!	!	!
2EE/	.	.	2EE/	in	.	2g\	in	.	2cc\	in	.
2.FFny/	.	.	2.FF/	ju-	.	2.fny\	ju-	.	2.a\	jŭ-	.
4GG/	.	.	4GG/	-bi-	.	4f\	-bi-	.	4b\	-bi-	.
2AA/	.	.	2AA/	-lo	.	2f\	-lo	.	2cc\	-lo	.
=56-	=56-	=56-	=56-	=56-	=56-	=56-	=56-	=56-	=56-	=56-	=56-
2FF/	.	.	2FF/	di-	.	2a\	di-	.	2cc\	di-	.
1GG	.	.	1GG	-cen-	.	1d	-cen-	.	2.cc\	-cen-	.
.	.	.	.	.	.	.	.	.	(4b\	-tes	.
!LO:SIC:v:t=custos C	!	!	!	!	!	!LO:SIC:v:t=custos c	!	!	!	!	!
1.C	.	.	1.C	-tes	.	1.e	-tes	.	1.cc)	.	.
!LO:LB:g=original	!	!	!	!	!	!LO:LB:g=original	!	!	!LO:LB:g=original	!	!
=57-	=57-	=57-	=57-	=57-	=57-	=57-	=57-	=57-	=57-	=57-	=57-
*M2/1	*	*	*M2/1	*	*	*M2/1	*	*	*M2/1	*	*
*met(C)	*	*	*met(C)	*	*	*met(C)	*	*	*met(C)	*	*
!	!	!	!	!	!	!	!	!	!LO:TX:a:t=6	!	!
4C/	.	.	00r	.	.	16c\LL	Fu-	.	0r	.	.
.	.	.	.	.	.	16d\	.	.	.	.	.
.	.	.	.	.	.	16e\	.	.	.	.	.
.	.	.	.	.	.	16f\JJ	.	.	.	.	.
4BB/	.	.	.	.	.	8g\	.	.	.	.	.
.	.	.	.	.	.	16f\	gi-	.	.	.	.
.	.	.	.	.	.	16g\	-te	.	.	.	.
!LO:TX:t=P:problem:kreska pseudotaktowa	!	!	!	!	!	!	!	!	!	!	!
2C/	.	.	.	.	.	8.e\	fŭ-	.	.	.	.
.	.	.	.	.	.	16d\	-gi-	.	.	.	.
!	!	!	!	!	!	!LO:TX:t=P:problem:kreska pseudotaktowa	!	!	!	!	!
.	.	.	.	.	.	4e\	-te	.	.	.	.
4Fny\	.	.	.	.	.	16f\LL	fŭ-	.	.	.	.
.	.	.	.	.	.	16g\	.	.	.	.	.
.	.	.	.	.	.	16a\	.	.	.	.	.
.	.	.	.	.	.	16b\JJ	.	.	.	.	.
4E\	.	.	.	.	.	8cc\	.	.	.	.	.
.	.	.	.	.	.	16b\	-gi-	.	.	.	.
.	.	.	.	.	.	16cc\	-te	.	.	.	.
2F\	.	.	.	.	.	8.a\	fŭ-	.	.	.	.
.	.	.	.	.	.	16a\	-gi-	.	.	.	.
.	.	.	.	.	.	8.a\	-te	.	.	.	.
!	!	!	!	!	!	!LO:TX:t=P:problem:kreska pseudotaktowa	!	!	!	!	!
.	.	.	.	.	.	16a\	qŭe(m)	.	.	.	.
=58-	=58-	=58-	=58-	=58-	=58-	=58-	=58-	=58-	=58-	=58-	=58-
4D/	.	.	.	.	.	8.f\	non	.	0r	.	.
.	.	.	.	.	.	16a\	di-	.	.	.	.
4BB/	.	.	.	.	.	8.d\	-le-	.	.	.	.
.	.	.	.	.	.	16f\	-xit	.	.	.	.
4.C/	.	.	.	.	.	8.e\	do-	.	.	.	.
.	.	.	.	.	.	16d\	-mi-	.	.	.	.
.	.	.	.	.	.	8.c\	-nus	.	.	.	.
8C/	.	.	.	.	.	.	.	.	.	.	.
!	!	!	!	!	!	!LO:TX:t=P:problem:kreska pseudotaktowa	!	!	!	!	!
.	.	.	.	.	.	16cc\	qua'	.	.	.	.
4D/	.	.	.	.	.	8f\	non	.	.	.	.
.	.	.	.	.	.	8b-X\	di-	.	.	.	.
4E\	.	.	.	.	.	8a\	-le-	.	.	.	.
!	!	!	!	!	!	!LO:SIC:v:t=custos a	!	!	!	!	!
.	.	.	.	.	.	8g\	-xit	.	.	.	.
!	!	!	!	!	!	!LO:LB:g=original	!	!	!	!	!
4F\	.	.	.	.	.	8a\L	Do-	.	.	.	.
.	.	.	.	.	.	16g\L	.	.	.	.	.
.	.	.	.	.	.	16f\JJ	.	.	.	.	.
4E\	.	.	.	.	.	16g\LL	.	.	.	.	.
.	.	.	.	.	.	16c\	.	.	.	.	.
.	.	.	.	.	.	16d\	.	.	.	.	.
!	!	!	!	!	!	!LO:TX:t=P:problem:kreska pseudotaktowa	!	!	!	!	!
.	.	.	.	.	.	16e\JJ	.	.	.	.	.
=59-	=59-	=59-	=59-	=59-	=59-	=59-	=59-	=59-	=59-	=59-	=59-
2D/	.	.	00r	.	.	16f\LL	.	.	0r	.	.
.	.	.	.	.	.	16e\	.	.	.	.	.
.	.	.	.	.	.	16f\	.	.	.	.	.
.	.	.	.	.	.	16g\JJ	.	.	.	.	.
.	.	.	.	.	.	16f\LL	.	.	.	.	.
.	.	.	.	.	.	16d\	.	.	.	.	.
.	.	.	.	.	.	16e\	.	.	.	.	.
.	.	.	.	.	.	16f\JJ	.	.	.	.	.
4.C/	.	.	.	.	.	8.e\	.	.	.	.	.
.	.	.	.	.	.	16d\	-mi-	.	.	.	.
.	.	.	.	.	.	8.c\	-nùs	.	.	.	.
!LO:TX:t=P:problem:kreska pseudotaktowa	!	!	!	!	!	!	!	!	!	!	!
8AA/	.	.	.	.	.	.	.	.	.	.	.
!	!	!	!	!	!	!LO:TX:t=P:problem:kreska pseudotaktowa	!	!	!	!	!
.	.	.	.	.	.	16cc\	quae	.	.	.	.
8BB-X/L	.	.	.	.	.	8.b-X\	non	.	.	.	.
8C/	.	.	.	.	.	.	.	.	.	.	.
.	.	.	.	.	.	16a\	di-	.	.	.	.
8D/	.	.	.	.	.	8a\	-le-	.	.	.	.
8BB-X/J	.	.	.	.	.	8g\	-xit	.	.	.	.
2C/	.	.	.	.	.	16g\LL	Do-	.	.	.	.
.	.	.	.	.	.	16f\	.	.	.	.	.
.	.	.	.	.	.	16g\	.	.	.	.	.
.	.	.	.	.	.	16a\JJ	.	.	.	.	.
.	.	.	.	.	.	8.g\	.	.	.	.	.
.	.	.	.	.	.	16f\	-mi-	.	.	.	.
=60-	=60-	=60-	=60-	=60-	=60-	=60-	=60-	=60-	=60-	=60-	=60-
4F\	.	.	.	.	.	4f\	-nŭs	.	16fny/LL	fŭ-	.
.	.	.	.	.	.	.	.	.	16g/	.	.
.	.	.	.	.	.	.	.	.	16a/	.	.
.	.	.	.	.	.	.	.	.	16b/JJ	.	.
4E\	.	.	.	.	.	4r	.	.	8cc\	.	.
.	.	.	.	.	.	.	.	.	16b\	gi-	.
.	.	.	.	.	.	.	.	.	16cc\	-te	.
4F\	.	.	.	.	.	2r	.	.	8.a\	fu-	.
.	.	.	.	.	.	.	.	.	16g/	-gi-	.
!	!	!	!	!	!	!	!	!	!LO:TX:t=P:problem:kreska pseudotaktowa	!	!
(4D/	.	.	.	.	.	.	.	.	4f/	-te	.
4D/)	.	.	.	.	.	1r	.	.	16d/LL	fu-	.
.	.	.	.	.	.	.	.	.	16e/	.	.
.	.	.	.	.	.	.	.	.	16f/	.	.
.	.	.	.	.	.	.	.	.	16g/JJ	.	.
4C#X/	.	.	.	.	.	.	.	.	8a\	.	.
.	.	.	.	.	.	.	.	.	16g\	-gi-	.
.	.	.	.	.	.	.	.	.	16a\	-te	.
4.D/	.	.	.	.	.	.	.	.	8.f/	fu-	.
.	.	.	.	.	.	.	.	.	16e/	-gi-	.
.	.	.	.	.	.	.	.	.	8d/	-te	.
!LO:TX:t=P:problem:kreska pseudotaktowa	!	!	!	!	!	!	!	!	!LO:TX:t=P:problem:kreska pseudotaktowa	!	!
8D/	.	.	.	.	.	.	.	.	8dd\	qua'	.
=61-	=61-	=61-	=61-	=61-	=61-	=61-	=61-	=61-	=61-	=61-	=61-
4E\	.	.	0r	.	.	0r	.	.	8g/	non	.
.	.	.	.	.	.	.	.	.	8cc\	di-	.
4F#X\	.	.	.	.	.	.	.	.	8b-X\	-le-	.
.	.	.	.	.	.	.	.	.	8a\	-xiit	.
4.G\	.	.	.	.	.	.	.	.	8b-X\	Do-	.
.	.	.	.	.	.	.	.	.	8a\	-mi-	.
.	.	.	.	.	.	.	.	.	8g\	-n(us)	.
!	!	!	!	!	!	!	!	!	!LO:TX:t=P:problem:kreska pseudotaktowa	!	!
8G\	.	.	.	.	.	.	.	.	8b-X\	qŭa'	.
2E-X\	.	.	.	.	.	.	.	.	8.ee-X\	non	.
.	.	.	.	.	.	.	.	.	16dd\	di-	.
.	.	.	.	.	.	.	.	.	8dd\	-le-	.
.	.	.	.	.	.	.	.	.	8cc\	-xit	.
4F#\	.	.	.	.	.	.	.	.	16cc\LL	Do-	.
.	.	.	.	.	.	.	.	.	16b-X\	.	.
.	.	.	.	.	.	.	.	.	16cc\	.	.
.	.	.	.	.	.	.	.	.	16dd\JJ	.	.
4FF/	.	.	.	.	.	.	.	.	8.cc\	.	.
!	!	!	!	!	!	!	!	!	!LO:TX:a:t=P:problem:♭ above	!	!
.	.	.	.	.	.	.	.	.	16b-X\	-mi-	.
!	!	!	!	!	!	!	!	!	!LO:LB:g=original	!	!
=62-	=62-	=62-	=62-	=62-	=62-	=62-	=62-	=62-	=62-	=62-	=62-
4BB-X/	.	.	16BB-X/LL	fŭ-	.	0r	.	.	4b-X\	-nŭs	.
.	.	.	16C/	.	.	.	.	.	.	.	.
.	.	.	16D/	.	.	.	.	.	.	.	.
.	.	.	16E-X/JJ	.	.	.	.	.	.	.	.
4AA/	.	.	8F\	.	.	.	.	.	4r	.	.
.	.	.	16E-X\	-gi-	.	.	.	.	.	.	.
.	.	.	16F\	-te	.	.	.	.	.	.	.
!LO:SIC:v:t=custos FF	!	!	!	!	!	!	!	!	!	!	!
2BB-X/	.	.	8.D/	fŭ-	.	.	.	.	2r	.	.
.	.	.	16C/	-gi-	.	.	.	.	.	.	.
!	!	!	!LO:TX:t=P:problem:kreska pseudotaktowa	!	!	!	!	!	!	!	!
.	.	.	4BB-X/	-te	.	.	.	.	.	.	.
!LO:LB:g=original	!	!	!	!	!	!	!	!	!	!	!
4FF/	.	.	16F\LL	fŭ-	.	.	.	.	1r	.	.
.	.	.	16G\	.	.	.	.	.	.	.	.
.	.	.	16A\	.	.	.	.	.	.	.	.
.	.	.	16B-X\JJ	.	.	.	.	.	.	.	.
4EE/	.	.	8c\	.	.	.	.	.	.	.	.
.	.	.	16B-X\	-gi-	.	.	.	.	.	.	.
.	.	.	16c\	-te	.	.	.	.	.	.	.
4FF/	.	.	8.A\	fu-	.	.	.	.	.	.	.
.	.	.	16G\	-gi-	.	.	.	.	.	.	.
4Fny\	.	.	8F\	-te	.	.	.	.	.	.	.
.	.	.	8A\	quae	.	.	.	.	.	.	.
!	!	!	!LO:LB:g=original	!	!	!	!	!	!	!	!
=63-	=63-	=63-	=63-	=63-	=63-	=63-	=63-	=63-	=63-	=63-	=63-
4D/	.	.	8.F\	non	.	0r	.	.	0r	.	.
.	.	.	16A\	di-	.	.	.	.	.	.	.
4BBny/	.	.	8.D/	-le-	.	.	.	.	.	.	.
.	.	.	16F\	-xit	.	.	.	.	.	.	.
4.Cny/	.	.	8.Eny\	Do-	.	.	.	.	.	.	.
.	.	.	16D/	-mi-	.	.	.	.	.	.	.
.	.	.	8.C/	-n(us)	.	.	.	.	.	.	.
!LO:TX:t=P:problem:kreska pseudotaktowa	!	!	!	!	!	!	!	!	!	!	!
8C/	.	.	.	.	.	.	.	.	.	.	.
!	!	!	!LO:TX:t=P:problem:kreska pseudotaktowa	!	!	!	!	!	!	!	!
.	.	.	16E\	que	.	.	.	.	.	.	.
4AA/	.	.	8.AA/	non	.	.	.	.	.	.	.
.	.	.	16C/	di-	.	.	.	.	.	.	.
4FF#X/	.	.	8.FF#X/	-le-	.	.	.	.	.	.	.
.	.	.	16GG/	-xit	.	.	.	.	.	.	.
4.GG/	.	.	8.GG/	Do-	.	.	.	.	.	.	.
.	.	.	16GG/	-mi-	.	.	.	.	.	.	.
.	.	.	8.GG/	-n(us)	.	.	.	.	.	.	.
8GG/	.	.	.	.	.	.	.	.	.	.	.
!	!	!	!LO:TX:t=P:problem:kreska pseudotaktowa	!	!	!	!	!	!	!	!
.	.	.	16G\	qŭe	.	.	.	.	.	.	.
=64-	=64-	=64-	=64-	=64-	=64-	=64-	=64-	=64-	=64-	=64-	=64-
4AA/	.	.	8.C/	non	.	0r	.	.	0r	.	.
.	.	.	16F\	di-	.	.	.	.	.	.	.
4BB/	.	.	8E\	-le-	.	.	.	.	.	.	.
.	.	.	8D/	-xit	.	.	.	.	.	.	.
4C/	.	.	16E\LL	Do-	.	.	.	.	.	.	.
.	.	.	16F\	.	.	.	.	.	.	.	.
.	.	.	16G\	.	.	.	.	.	.	.	.
.	.	.	16A\JJ	.	.	.	.	.	.	.	.
!LO:TX:t=P:problem:kreska pseudotaktowa	!	!	!	!	!	!	!	!	!	!	!
4BB/	.	.	16D\LL	.	.	.	.	.	.	.	.
.	.	.	16E\	.	.	.	.	.	.	.	.
.	.	.	16F\	.	.	.	.	.	.	.	.
!	!	!	!LO:TX:t=P:problem:kreska pseudotaktowa	!	!	!	!	!	!	!	!
.	.	.	16G\JJ	.	.	.	.	.	.	.	.
2AA/	.	.	16C/LL	.	.	.	.	.	.	.	.
.	.	.	16D/	.	.	.	.	.	.	.	.
.	.	.	16E/	.	.	.	.	.	.	.	.
.	.	.	16F/JJ	.	.	.	.	.	.	.	.
.	.	.	16AA/LL	.	.	.	.	.	.	.	.
.	.	.	16BBny/	.	.	.	.	.	.	.	.
.	.	.	16C/	.	.	.	.	.	.	.	.
.	.	.	16D/JJ	.	.	.	.	.	.	.	.
!	!	!	!LO:LB:g=original	!	!	!	!	!	!	!	!
4.GG/	.	.	8.BB/	.	.	.	.	.	.	.	.
.	.	.	16AA/	-mi-	.	.	.	.	.	.	.
.	.	.	8GG/	-n(us)	.	.	.	.	.	.	.
!	!	!	!LO:TX:t=P:problem:kreska pseudotaktowa	!	!	!	!	!	!	!	!
8EE/	.	.	8EE/	que	.	.	.	.	.	.	.
=65-	=65-	=65-	=65-	=65-	=65-	=65-	=65-	=65-	=65-	=65-	=65-
2FFny/	.	.	8.FFny/	nõn	.	0r	.	.	1r	.	.
.	.	.	16GG/	di-	.	.	.	.	.	.	.
.	.	.	8AA/	-le-	.	.	.	.	.	.	.
.	.	.	8FF/	-xit	.	.	.	.	.	.	.
!LO:TX:t=P:problem:kreska pseudotaktowa	!	!	!	!	!	!	!	!	!	!	!
2GG/	.	.	4.GG/	Do-	.	.	.	.	.	.	.
.	.	.	8GG/	-mi-	.	.	.	.	.	.	.
4.C/	.	.	2C/	-nŭs	.	.	.	.	4r	.	.
.	.	.	.	.	.	.	.	.	4cc\	ne	.
8C/	.	.	.	.	.	.	.	.	.	.	.
!	!	!	!LO:TX:t=P:problem:kreska pseudotaktowa	!	!	!	!	!	!	!	!
4.D/	.	.	2r	.	.	.	.	.	4f/	vos	.
!	!	!	!	!	!	!	!	!	!LO:TX:t=P:problem:kreska pseudotaktowa	!	!
.	.	.	.	.	.	.	.	.	4b-X\	se-	.
8Eny\	.	.	.	.	.	.	.	.	.	.	.
=66-	=66-	=66-	=66-	=66-	=66-	=66-	=66-	=66-	=66-	=66-	=66-
4F\	.	.	4r	.	.	4r	.	.	(8b-X\L	-du-	.
.	.	.	.	.	.	.	.	.	8a\J)	.	.
4FF/	.	.	4FF/	dul-	.	4f\	ne	.	8a\	-cat	.
.	.	.	.	.	.	.	.	.	8a\	dŭl-	.
4.GG/	.	.	4.GG/	-ce-	.	4B-X/	vos	.	4.b-X\	-ce-	.
.	.	.	.	.	.	(8e-X\L	se-	.	.	.	.
!LO:TX:t=P:problem:kreska pseudotaktowa	!	!	!LO:TX:t=P:problem:kreska pseudotaktowa	!	!	!LO:TX:t=P:problem:kreska pseudotaktowa	!	!	!	!	!
8AA/	.	.	8AA/	-do	.	8d\J)	.	.	8cc\	-do	.
2.BB-X/	.	.	8.BB-X/	se-	.	4d\	-du-	.	8.f/	se-	.
.	.	.	16BB-/	-cu-	.	.	.	.	16f/	-cŭ-	.
.	.	.	8BB-/	-li	.	8d\	-cat	.	8f/	-li	.
.	.	.	8BB-/	dŭl-	.	8d\	dul-	.	8f/	dùl-	.
!	!	!	!	!	!	!LO:LB:g=original	!	!	!	!	!
.	.	.	4BB-/	-ce-	.	4.e-\	-ce-	.	4.g/	-ce-	.
!	!	!	!LO:TX:t=P:problem:kreska pseudotaktowa	!	!	!	!	!	!	!	!
4AA/	.	.	4AA/	-do	.	.	.	.	.	.	.
!	!	!	!	!	!	!LO:TX:t=P:problem:kreska pseudotaktowa	!	!	!LO:TX:t=P:problem:kreska pseudotaktowa	!	!
.	.	.	.	.	.	8f\	-do	.	8a\	-do	.
=67-	=67-	=67-	=67-	=67-	=67-	=67-	=67-	=67-	=67-	=67-	=67-
2GG/	.	.	4.GG/	se-	.	4.f\	se-	.	4.b-X\	se-	.
.	.	.	8GG/	-cu-	.	8eny\	-cu-	.	8b-\	-cu-	.
4FF/	.	.	4FF/	-li	.	4f\	-li	.	4a\	-li	.
!	!	!	!LO:TX:t=P:problem:kreska pseudotaktowa	!	!	!LO:TX:t=P:problem:kreska pseudotaktowa	!	!	!LO:TX:t=P:problem:kreska pseudotaktowa	!	!
4F\	.	.	4F\	ne	.	4a\	dùl-	.	4cc\	dùl-	.
4BB-/	.	.	4BB-X/	vos	.	4a\	-ce-	.	2b-X\	-ce-	.
4E-X\	.	.	4E-X\	se-	.	8g\	-do	.	.	.	.
.	.	.	.	.	.	8g\	dul-	.	.	.	.
4AA/	.	.	4AA/	-du-	.	4g\	-ce-	.	4.a\	-do	.
4D/	.	.	8D/	-cat	.	8f\	-do	.	.	.	.
!	!	!	!	!	!	!LO:TX:t=P:problem:kreska pseudotaktowa	!	!	!	!	!
.	.	.	8D/	du(l)-	.	8f\	dul-	.	8a\	dul-	.
!	!	!	!LO:LB:g=original	!	!	!	!	!	!	!	!
=68-	=68-	=68-	=68-	=68-	=68-	=68-	=68-	=68-	=68-	=68-	=68-
4GG/	.	.	4GG/	-ce-	.	4f\	-ce-	.	2g/	-ce-	.
4C/	.	.	4C/	-do	.	8e\	-do	.	.	.	.
.	.	.	.	.	.	8e\	dŭl-	.	.	.	.
!	!	!	!	!	!	!	!	!	!LO:TX:t=P:problem:kreska pseudotaktowa	!	!
4.FF/	.	.	4.FF/	sê-	.	4e\	-ce-	.	2f/	-do	.
!	!	!	!	!	!	!LO:TX:t=P:problem:kreska pseudotaktowa	!	!	!	!	!
.	.	.	.	.	.	4d\	-do	.	.	.	.
!LO:SIC:v:t=custos AA	!	!	!LO:TX:t=P:problem:kreska pseudotaktowa	!	!	!	!	!	!	!	!
8GG/	.	.	8GG/	.	.	.	.	.	.	.	.
!LO:LB:g=original	!	!	!	!	!	!	!	!	!	!	!
2AA/	.	.	4.AA/	.	.	4.d\	se-	.	4.e/	se-	.
.	.	.	8AA/	-cŭ-	.	8c#X/	-cu-	.	8e/	-cu-	.
4D/	.	.	4D/	-li	.	4d\	-li	.	4f/	-li	.
!	!	!	!LO:TX:t=P:problem:kreska pseudotaktowa	!	!	!	!	!	!LO:TX:t=P:problem:kreska pseudotaktowa	!	!
4d\	.	.	4d\	ne	.	8r	.	.	4ff\	dul-	.
.	.	.	.	.	.	8b-X\	dŭl-	.	.	.	.
=69-	=69-	=69-	=69-	=69-	=69-	=69-	=69-	=69-	=69-	=69-	=69-
4G\	.	.	4G\	uos	.	2b-\	-ce-	.	4ff\	-ce-	.
4c\	.	.	4c\	se-	.	.	.	.	8ee-X\	-do	.
.	.	.	.	.	.	.	.	.	8ee-\	dúl-	.
!	!	!	!	!	!	!	!	!	!LO:LB:g=original	!	!
4F\	.	.	4F\	-du-	.	4.a\	-do	.	4ee-X\	-ce-	.
!LO:TX:t=P:problem:kreska pseudotaktowa	!	!	!	!	!	!	!	!	!	!	!
4B-X\	.	.	8B-X\	-cat	.	.	.	.	8dd\	-do	.
!	!	!	!LO:TX:t=P:problem:kreska pseudotaktowa	!	!	!LO:TX:t=P:problem:kreska pseudotaktowa	!	!	!LO:TX:t=P:problem:kreska pseudotaktowa	!	!
.	.	.	8B-\	dul-	.	8a\	dùl-	.	8dd\	dùl-	.
4Eny\	.	.	4Eny\	-ce-	.	4.g\	-ce-	.	4dd\	-ce-	.
4A\	.	.	8A\	do	.	.	.	.	4cc\	-do	.
.	.	.	8A\	dŭl-	.	8g\	-do	.	.	.	.
4D/	.	.	4D/	-ce-	.	4.f\	se-	.	4.cc\	se-	.
!	!	!	!LO:TX:t=P:problem:kreska pseudotaktowa	!	!	!	!	!	!	!	!
4G\	.	.	4G\	-do	.	.	.	.	.	.	.
!	!	!	!	!	!	!	!	!	!LO:TX:t=P:problem:kreska pseudotaktowa	!	!
!	!	!	!	!	!	!LO:SIC:v:t=custos e	!	!	!LO:N:acc=#	!	!
.	.	.	.	.	.	8f\	-cŭ-	.	8bn\	-cu-	.
!	!	!	!	!	!	!LO:LB:g=original	!	!	!	!	!
=70-	=70-	=70-	=70-	=70-	=70-	=70-	=70-	=70-	=70-	=70-	=70-
2C/	.	.	8.C/	se-	.	4.e\	-li	.	4cc\	-li	.
.	.	.	16C/	-cu-	.	.	.	.	.	.	.
.	.	.	8C/	-li	.	.	.	.	4cc\	dŭl-	.
.	.	.	8C/	dŭl-	.	8e\	dŭl-	.	.	.	.
4D/	.	.	4D/	-ce-	.	4f#X\	-ce-	.	4cc\	-ce-	.
!LO:TX:t=P:problem:kreska pseudotaktowa	!	!	!LO:TX:t=P:problem:kreska pseudotaktowa	!	!	!LO:TX:t=P:problem:kreska pseudotaktowa	!	!	!	!	!
4E-X\	.	.	4E-X\	-do	.	4g\	-do	.	4b-X\	-do	.
4C/	.	.	4C/	se-	.	4.g\	se-	.	4.a\	se-	.
4D/	.	.	4D/	-cu-	.	.	.	.	.	.	.
.	.	.	.	.	.	8f#X\	-cu-	.	8a\	-cu-	.
!	!	!	!	!	!	!	!	!	!LO:N:acc=#	!	!
4GG/	.	.	4G\	-li	.	4g\	-li	.	4bn\	-li	.
!	!	!	!LO:TX:t=P:problem:kreska pseudotaktowa	!	!	!LO:TX:t=P:problem:kreska pseudotaktowa	!	!	!	!	!
4G\	.	.	4r	.	.	4g\	ne	.	4r	.	.
=71-	=71-	=71-	=71-	=71-	=71-	=71-	=71-	=71-	=71-	=71-	=71-
2.A\	.	.	4r	.	.	4cny/	vos	.	0r	.	.
.	.	.	4A\	dŭl-	.	4fny\	se-	.	.	.	.
!	!	!	!LO:LB:g=original	!	!	!LO:N:acc=#	!	!	!	!	!
.	.	.	4A\	-ce-	.	4Bn/	-du-	.	.	.	.
!LO:TX:t=P:problem:kreska pseudotaktowa	!	!	!	!	!	!	!	!	!	!	!
(4G\	.	.	8G\	-do	.	8e\	-cat	.	.	.	.
!	!	!	!LO:TX:t=P:problem:kreska pseudotaktowa	!	!	!LO:TX:t=P:problem:kreska pseudotaktowa	!	!	!	!	!
.	.	.	8G\	dŭl-	.	8e\	dŭl-	.	.	.	.
4G\)	.	.	4G\	-ce-	.	4A/	-ce-	.	.	.	.
2F\	.	.	8F\	-do	.	8d\	-do	.	.	.	.
.	.	.	8F\	dŭl-	.	8d\	dul-	.	.	.	.
.	.	.	4F\	-ce-	.	4G/	-ce-	.	.	.	.
!	!	!	!LO:TX:t=P:problem:kreska pseudotaktowa	!	!	!LO:TX:t=P:problem:kreska pseudotaktowa	!	!	!	!	!
4Eny\	.	.	4Eny\	-do	.	4c/	-do	.	.	.	.
=72-	=72-	=72-	=72-	=72-	=72-	=72-	=72-	=72-	=72-	=72-	=72-
4F\	.	.	4F\	se-	.	4.c/	se-	.	2r	.	.
4G\	.	.	4G\	-cu-	.	.	.	.	.	.	.
.	.	.	.	.	.	8B/	-cu-	.	.	.	.
4C/	.	.	4.C/	-li	.	4c/	-li	.	4r	.	.
!	!	!	!	!	!	!	!	!	!LO:TX:t=P:problem:kreska pseudotaktowa	!	!
4c\	.	.	.	.	.	4g\	dŭl-	.	4eeny\	dŭl-	.
!	!	!	!LO:TX:t=P:problem:kreska pseudotaktowa	!	!	!	!	!	!	!	!
.	.	.	8c\	ne	.	.	.	.	.	.	.
4F\	.	.	4F\	ůos	.	2f\	-ce-	.	4ee\	-ce-	.
4B-X\	.	.	4B-X\	se-	.	.	.	.	8dd\	-do	.
.	.	.	.	.	.	.	.	.	8dd\	dul-	.
4E\	.	.	4E\	-du-	.	4e\	-do	.	4dd\	-ce-	.
!LO:TX:t=P:problem:kreska pseudotaktowa	!	!	!	!	!	!LO:TX:t=P:problem:kreska pseudotaktowa	!	!	!	!	!
4A\	.	.	8A\	-cat	.	4e\	dŭl-	.	8cc\	-do	.
!	!	!	!LO:TX:t=P:problem:kreska pseudotaktowa	!	!	!	!	!	!LO:TX:t=P:problem:kreska pseudotaktowa	!	!
.	.	.	8A\	dul-	.	.	.	.	8cc\	dŭl-	.
=73-	=73-	=73-	=73-	=73-	=73-	=73-	=73-	=73-	=73-	=73-	=73-
4D/	.	.	4D/	-ce-	.	2d\	-ce-	.	4cc\	-ce-	.
4G\	.	.	8G\	-do	.	.	.	.	8b\	-do	.
.	.	.	8G\	dŭl-	.	.	.	.	8b\	dŭl-	.
4.C/	.	.	4.C/	-ce-	.	2c/	-do	.	4b\	-ce-	.
.	.	.	.	.	.	.	.	.	4a\	-do	.
!	!	!	!LO:TX:t=P:problem:kreska pseudotaktowa	!	!	!	!	!	!	!	!
8C/	.	.	8C/	-do	.	.	.	.	.	.	.
4D/	.	.	4D/	se-	.	4.B/	se-	.	4.a\	se-	.
4E\	.	.	4E\	-cŭ-	.	.	.	.	.	.	.
.	.	.	.	.	.	8B/	-cŭ-	.	8g#X\	-cŭ-	.
2AA/	.	.	4A\	-li	.	4c/	-li	.	4a\	-li	.
!	!	!	!LO:TX:t=P:problem:kreska pseudotaktowa	!	!	!	!	!	!	!	!
.	.	.	4AA/	dul-	.	4r	.	.	4cc\	dŭl-	.
!	!	!	!	!	!	!LO:LB:g=original	!	!	!LO:LB:g=original	!	!
=74-	=74-	=74-	=74-	=74-	=74-	=74-	=74-	=74-	=74-	=74-	=74-
4BBny/	.	.	4BBny/	-ce-	.	4r	.	.	4dd\	-ce-	.
4C#X/	.	.	4C#X/	-do	.	4e\	dul-	.	4ee\	-do	.
4D/	.	.	4D/	se-	.	4f#X\	-ce-	.	4dd\	se-	.
!LO:SIC:v:t=custos F	!	!	!LO:SIC:v:t=custos F	!	!	!LO:TX:t=P:problem:kreska pseudotaktowa	!	!	!	!	!
4E\	.	.	4E\	-cú-	.	4g#X\	-do	.	8cc\L	-cŭ-	.
!	!	!	!	!	!	!	!	!	!LO:TX:t=P:problem:kreska pseudotaktowa	!	!
.	.	.	.	.	.	.	.	.	8b\J	.	.
!LO:LB:g=original	!	!	!LO:LB:g=original	!	!	!	!	!	!	!	!
4F\	.	.	4F\	-li	.	4.a\	se-	.	4a\	-li	.
4AA/	.	.	4AA/	dul-	.	.	.	.	4ff\	dul-	.
.	.	.	.	.	.	8a\	-cu-	.	.	.	.
4BB/	.	.	4BB/	-ce-	.	4.g#\	-li	.	4ff\	-ce-	.
!	!	!	!LO:TX:t=P:problem:kreska pseudotaktowa	!	!	!	!	!	!	!	!
4C#X/	.	.	4C#X/	-do	.	.	.	.	8ee\	-do	.
!	!	!	!	!	!	!	!	!	!LO:TX:t=P:problem:kreska pseudotaktowa	!	!
.	.	.	.	.	.	8g#\	dul-	.	8ee\	dŭl-	.
=75-	=75-	=75-	=75-	=75-	=75-	=75-	=75-	=75-	=75-	=75-	=75-
4D/	.	.	8D/L	se-	.	2fny\	-ce-	.	4ee\	-ce-	.
.	.	.	8Cny/	.	.	.	.	.	.	.	.
4BB/	.	.	8BB/	.	.	.	.	.	8dd\	-do	.
.	.	.	16AA/L	.	.	.	.	.	8dd\	dŭl-	.
.	.	.	16BB/JJ	.	.	.	.	.	.	.	.
!	!	!	!	!	!	!LO:TX:t=P:problem:kreska pseudotaktowa	!	!	!	!	!
4Cny/	.	.	8C/L	.	.	2e\	-do	.	4dd\	-ce-	.
.	.	.	8BB/	.	.	.	.	.	.	.	.
!	!	!	!	!	!	!	!	!	!LO:TX:t=P:problem:kreska pseudotaktowa	!	!
4AA/	.	.	8AA/	.	.	.	.	.	4cc\	-do	.
!	!	!	!LO:TX:t=P:problem:kreska pseudotaktowa	!	!	!	!	!	!	!	!
.	.	.	8GG/J	.	.	.	.	.	.	.	.
4FF/	.	.	4FF/	.	.	4.d\	se-	.	4.cc\	se-	.
4GG/	.	.	4GG/	-cu-	.	.	.	.	.	.	.
!	!	!	!	!	!	!	!	!	!LO:N:acc=#	!	!
.	.	.	.	.	.	8d\	-cu-	.	8bn\	-cu-	.
!LO:TX:t=P:problem:kreska pseudotaktowa	!	!	!	!	!	!	!	!	!	!	!
2C/	.	.	4C/	-li	.	4e\	-li	.	4cc\	-li	.
!	!	!	!LO:TX:t=P:problem:kreska pseudotaktowa	!	!	!LO:TX:t=P:problem:kreska pseudotaktowa	!	!	!	!	!
.	.	.	4r	.	.	4r	.	.	4cc\	ne	.
=76-	=76-	=76-	=76-	=76-	=76-	=76-	=76-	=76-	=76-	=76-	=76-
4.D\	.	.	2r	.	.	2r	.	.	4f/	vos	.
.	.	.	.	.	.	.	.	.	4b-X\	se-	.
8E\	.	.	.	.	.	.	.	.	.	.	.
4F\	.	.	4r	.	.	4r	.	.	8b-\L	-du-	.
.	.	.	.	.	.	.	.	.	8a\J	.	.
4FF/	.	.	4FF/	dul-	.	4f\	ne	.	8a\	-cat	.
.	.	.	.	.	.	.	.	.	8a\	dŭl-	.
4.GG/	.	.	4.GG/	-ce-	.	4B-X/	vos	.	4.b-X\	-ce-	.
.	.	.	.	.	.	(8e-X\L	se-	.	.	.	.
!	!	!	!	!	!	!	!	!	!LO:TX:t=P:problem:kreska pseudotaktowa	!	!
8AA/	.	.	8AA/	-do	.	8d\J)	.	.	8cc\	-do	.
!LO:TX:t=P:problem:kreska pseudotaktowa	!	!	!	!	!	!	!	!	!	!	!
(2BB-X/	.	.	8.BB-X/	se-	.	4d\	-du-	.	8.f/	se-	.
.	.	.	16BB-/	-cu-	.	.	.	.	16f/	-cu-	.
.	.	.	8BB-/	-li	.	8d\	-cat	.	8f/	-li	.
!	!	!	!LO:TX:t=P:problem:kreska pseudotaktowa	!	!	!LO:TX:t=P:problem:kreska pseudotaktowa	!	!	!LO:SIC:v:t=custos g	!	!
.	.	.	8BB-/	dul-	.	8d\	dŭl-	.	8f/	dŭl-	.
!	!	!	!	!	!	!	!	!	!LO:LB:g=original	!	!
=77-	=77-	=77-	=77-	=77-	=77-	=77-	=77-	=77-	=77-	=77-	=77-
4BB-/)	.	.	4BBny/	-ce-	.	4.eny\	-ce-	.	4.gny\	-ce-	.
4AA/	.	.	4AA/	-do	.	.	.	.	.	.	.
.	.	.	.	.	.	8f\	-do	.	8a\	-do	.
2GG/	.	.	4.GG/	se-	.	4.f\	se-	.	4.b-X\	se-	.
!	!	!	!LO:TX:t=P:problem:kreska pseudotaktowa	!	!	!	!	!	!LO:TX:t=P:problem:kreska pseudotaktowa	!	!
.	.	.	8GG/	-cŭ-	.	8e\	-cŭ-	.	8b-\	-cu-	.
4FF/	.	.	4FF/	-li	.	4f\	-li	.	4a\	-li	.
4F\	.	.	4F\	ne	.	4a\	dul-	.	4cc\	dŭl-	.
!	!	!	!	!	!	!	!	!	!LO:TX:t=P:problem:kreska pseudotaktowa	!	!
4BB-X/	.	.	4BB-X/	uos	.	4a\	-ce-	.	2b-X\	-ce-	.
!LO:TX:t=P:problem:kreska pseudotaktowa	!	!	!LO:SIC:v:t=custos AA	!	!	!	!	!	!	!	!
4E-X\	.	.	4E-X\	se-	.	8gny\	-do	.	.	.	.
.	.	.	.	.	.	8g\	dŭl-	.	.	.	.
!	!	!	!LO:LB:g=original	!	!	!LO:LB:g=original	!	!	!	!	!
=78-	=78-	=78-	=78-	=78-	=78-	=78-	=78-	=78-	=78-	=78-	=78-
4AA/	.	.	4AA/	-du-	.	4g\	-ce-	.	4.a\	-do	.
4D/	.	.	8D/	-cat	.	8f\	-do	.	.	.	.
.	.	.	8D/	dul-	.	8f\	dul-	.	8a\	dŭl-	.
!	!	!	!	!	!	!	!	!	!LO:TX:t=P:problem:kreska pseudotaktowa	!	!
4GG/	.	.	4GG/	-ce-	.	4f\	-ce-	.	2g/	-ce-	.
!	!	!	!LO:TX:t=P:problem:kreska pseudotaktowa	!	!	!	!	!	!	!	!
4C/	.	.	4C/	-do	.	8e\	-do	.	.	.	.
!	!	!	!	!	!	!LO:TX:t=P:problem:kreska pseudotaktowa	!	!	!	!	!
.	.	.	.	.	.	8e\	dul-	.	.	.	.
4.FF/	.	.	4.FF/	se-	.	4e\	-ce-	.	2f/	-do	.
.	.	.	.	.	.	4d\	-do	.	.	.	.
8GG/	.	.	8GG/	.	.	.	.	.	.	.	.
!LO:TX:t=P:problem:kreska pseudotaktowa	!	!	!	!	!	!	!	!	!	!	!
2AA/	.	.	4.AA/	.	.	4.d\	se-	.	4.e/	se-	.
!	!	!	!LO:TX:t=P:problem:kreska pseudotaktowa	!	!	!	!	!	!LO:TX:t=P:problem:kreska pseudotaktowa	!	!
.	.	.	8AA/	-cŭ-	.	8c#X/	-cu-	.	8e/	-cŭ-	.
=79-	=79-	=79-	=79-	=79-	=79-	=79-	=79-	=79-	=79-	=79-	=79-
4D/	.	.	4D/	-li	.	4d\	-li	.	4f/	-li	.
4d\	.	.	8r	.	.	4f\	dŭl-	.	4b-X\	dŭl-	.
.	.	.	8d\	ne	.	.	.	.	.	.	.
!	!	!	!	!	!	!	!	!	!LO:TX:t=P:problem:kreska pseudotaktowa	!	!
4G\	.	.	4G\	uos	.	4f\	-ce-	.	2b-\	-ce-	.
!	!	!	!LO:TX:t=P:problem:kreska pseudotaktowa	!	!	!	!	!	!	!	!
4c\	.	.	4c\	se-	.	8e-X\	-do	.	.	.	.
!	!	!	!	!	!	!LO:TX:t=P:problem:kreska pseudotaktowa	!	!	!	!	!
.	.	.	.	.	.	8e-\	dŭl-	.	.	.	.
4F\	.	.	4F\	-du-	.	4e-X\	-ce-	.	4.a\	-do	.
4B-X\	.	.	8B-X\	-cat	.	8d\	-do	.	.	.	.
.	.	.	8B-\	dul-	.	8d\	dŭl-	.	8a\	dŭl-	.
4Eny\	.	.	4Eny\	-ce-	.	4d\	-ce-	.	4.g/	-ce-	.
!LO:TX:t=P:problem:kreska pseudotaktowa	!	!	!	!	!	!LO:TX:t=P:problem:kreska pseudotaktowa	!	!	!	!	!
4A\	.	.	8A\	-do	.	4cny/	-do	.	.	.	.
!	!	!	!LO:TX:t=P:problem:kreska pseudotaktowa	!	!	!	!	!	!LO:TX:t=P:problem:kreska pseudotaktowa	!	!
.	.	.	8A\	dul-	.	.	.	.	8g/	-do	.
=80-	=80-	=80-	=80-	=80-	=80-	=80-	=80-	=80-	=80-	=80-	=80-
4D/	.	.	4D/	-ce-	.	4.c/	se-	.	4.f/	se-	.
4G\	.	.	4G\	-do	.	.	.	.	.	.	.
.	.	.	.	.	.	8Bny/	-cu-	.	8f/	-cù-	.
2C/	.	.	8.C/	se-	.	4c/	-li	.	4.e/	-li	.
.	.	.	16C/	-cu-	.	.	.	.	.	.	.
.	.	.	8C/	-li	.	4c/	dŭl-	.	.	.	.
!	!	!	!LO:TX:t=P:problem:kreska pseudotaktowa	!	!	!	!	!	!	!	!
.	.	.	8C/	dŭl-	.	.	.	.	8e/	dŭl-	.
!LO:LB:g=original	!	!	!	!	!	!	!	!	!	!	!
4D/	.	.	4D/	-ce-	.	4c/	-ce-	.	4f#X/	-ce-	.
!	!	!	!LO:SIC:v:t=custos C	!	!	!	!	!	!	!	!
4E-X\	.	.	4E-X\	-do	.	4B-X/	-do	.	4g/	-do	.
!	!	!	!LO:LB:g=original	!	!	!	!	!	!	!	!
4C/	.	.	4C/	se-	.	4.A/	se-	.	4.g/	se-	.
!	!	!	!LO:TX:t=P:problem:kreska pseudotaktowa	!	!	!	!	!	!	!	!
4D/	.	.	4D/	-cu-	.	.	.	.	.	.	.
!	!	!	!	!	!	!LO:SIC:v:t=custos B	!	!	!LO:TX:t=P:problem:kreska pseudotaktowa	!	!
.	.	.	.	.	.	8A/	-cŭ-	.	8f#X/	-cŭ-	.
!	!	!	!	!	!	!LO:LB:g=original	!	!	!	!	!
=81-	=81-	=81-	=81-	=81-	=81-	=81-	=81-	=81-	=81-	=81-	=81-
!	!	!	!	!	!	!LO:N:acc=#	!	!	!	!	!
1GG	.	.	2.GG/	-li	.	2.Bn/	-li	.	2.g/	-li	.
!	!	!	!LO:TX:t=P:problem:kreska pseudotaktowa	!	!	!	!	!	!LO:SIC:v:t=custos a	!	!
.	.	.	4GG/	dul-	.	4B/	dŭl-	.	4g/	dŭl-	.
!	!	!	!LO:TX:t=P:problem:# above	!	!	!	!	!	!LO:LB:g=original	!	!
1FF#X	.	.	2.FF#X/	-ce-	.	2.c/	-ce-	.	2.a\	-ce-	.
!	!	!	!LO:TX:t=P:problem:kreska pseudotaktowa	!	!	!	!	!	!LO:TX:t=P:problem:kreska pseudotaktowa	!	!
.	.	.	4FF#/	-do	.	4c/	-do	.	4a\	-do	.
=82-	=82-	=82-	=82-	=82-	=82-	=82-	=82-	=82-	=82-	=82-	=82-
1GG	.	.	2.GG/	se-	.	2.c/	se-	.	2.d/	se-	.
!	!	!	!	!	!	!LO:N:acc=#	!	!	!	!	!
.	.	.	4GG/	-cu-	.	4Bn/	-cu-	.	4d/	-cŭ-	.
4C/	.	.	4C/	-li	.	4c/	-li	.	4e/	-li	.
4r	.	.	4r	.	.	4r	.	.	4r	.	.
!LO:TX:t=P:problem:kreska pseudotaktowa	!	!	!	!	!	!	!	!	!	!	!
2C/	.	.	8.C/	quo-	.	8.c/	quo-	.	8.e/	quo-	.
.	.	.	16C/	-ni-	.	16c/	-ni-	.	16e/	-ni-	.
.	.	.	8C/	-am	.	8c/	-am	.	8e/	-am	.
!	!	!	!LO:TX:t=P:problem:kreska pseudotaktowa	!	!	!	!	!	!LO:TX:t=P:problem:kreska pseudotaktowa	!	!
.	.	.	8r	.	.	8r	.	.	8r	.	.
=83-	=83-	=83-	=83-	=83-	=83-	=83-	=83-	=83-	=83-	=83-	=83-
!	!	!	!	!	!LO:DY:a:t=forte	!	!	!LO:DY:a:t=forte	!	!	!LO:DY:a:t=forte
4GG/	.	.	8.G\	pe-	f	8.B/	pe-	f	8.d/	pe-	f
.	.	.	16G\	-re-	.	16B/	-re-	.	16d/	-re-	.
4r	.	.	8G\	-ŭnt	.	8B/	-ŭnt	.	8d/	-ŭnt	.
.	.	.	8r	.	.	8r	.	.	8r	.	.
!	!	!	!	!	!LO:DY:a:t=piano	!	!	!LO:DY:a:t=piano	!	!	!LO:DY:a:t=piano
4D/	.	.	8.D/	pe-	p	8.d\	pe-	p	8.fny/	pe-	p
.	.	.	16D/	-re-	.	16d\	-re-	.	16f/	-re-	.
!LO:TX:t=P:problem:kreska pseudotaktowa	!	!	!	!	!	!	!	!	!	!	!
4r	.	.	8D/	-unt	.	8d\	-ŭnt	.	8f/	-ŭnt	.
!	!	!	!LO:TX:t=P:problem:kreska pseudotaktowa	!	!	!	!	!	!LO:TX:t=P:problem:kreska pseudotaktowa	!	!
.	.	.	8r	.	.	8r	.	.	8r	.	.
*	*	*	*	*ij	*	*	*ij	*	*	*ij	*
!	!	!	!	!	!LO:DY:a:t=forte	!	!	!LO:DY:a:t=forte	!	!	!LO:DY:a:t=forte
4A\	.	.	8.A\	pe-	f	8.c\	pe-	f	8.e/	pe-	f
.	.	.	16A\	-re-	.	16c\	-re-	.	16e/	-re-	.
4r	.	.	8A\	-unt	.	8c\	-ŭnt	.	8e/	-ŭnt	.
.	.	.	8r	.	.	8r	.	.	8r	.	.
!	!	!	!	!	!LO:DY:a:t=piano	!	!	!LO:DY:a:t=piano	!	!	!LO:DY:a:t=piano
4F\	.	.	8.F\	pe-	p	8.f\	pe-	p	8.a\	pe-	p
.	.	.	16F\	-re-	.	16f\	-re-	.	16a\	-re-	.
!LO:TX:t=P:problem:kreska pseudotaktowa	!	!	!	!	!	!	!	!	!	!	!
4r	.	.	8F\	-unt	.	8f\	-ŭnt	.	8a\	-ŭnt	.
*	*	*	*	*Xij	*	*	*	*	*	*Xij	*
!	!	!	!LO:TX:t=P:problem:kreska pseudotaktowa	!	!	!LO:TX:t=P:problem:kreska pseudotaktowa	!	!	!LO:TX:t=P:problem:kreska pseudotaktowa	!	!
.	.	.	8r	.	.	8r	.	.	8r	.	.
=84-	=84-	=84-	=84-	=84-	=84-	=84-	=84-	=84-	=84-	=84-	=84-
!	!	!	!	!	!	!	!	!LO:DY:a:t=forte	!	!	!
2C/	.	.	8.c\	pe-	.	8.eny\	pe-	f	8.g\	pe-	.
.	.	.	16c\	-re-	.	16e\	-re-	.	16g\	-re-	.
.	.	.	8c\	-unt	.	8e\	-ŭnt	.	8g\	-ŭnt	.
*	*	*	*	*	*	*	*Xij	*	*	*	*
!	!	!	!	!	!	!LO:TX:t=P:problem:brakująca pauza?	!	!	!LO:TX:t=P:problem:brakująca pauza?	!	!
.	.	.	4r	.	.	8ryy	.	.	8ryy	.	.
!	!	!	!	!	!	!LO:SIC:v:t=custos b	!	!	!	!	!
4C/	.	.	.	.	.	2r	.	.	2r	.	.
!	!	!	!LO:LB:g=original	!	!	!	!	!	!	!	!
.	.	.	8C/	qui	.	.	.	.	.	.	.
8BBny/L	.	.	8BBny/	con-	.	.	.	.	.	.	.
!	!	!	!LO:TX:t=P:problem:kreska pseudotaktowa	!	!	!	!	!	!	!	!
8AA/J	.	.	8AA/	-tra	.	.	.	.	.	.	.
!	!	!	!	!	!	!LO:LB:g=original	!	!	!LO:LB:g=original	!	!
4GG/	.	.	8GG/	di-	.	8r	.	.	8r	.	.
.	.	.	8GG/	-cunt	.	8bny\	qui	.	8dd\	qui	.
4C/	.	.	8.C/	con-	.	8a\	con-	.	8cc\	con-	.
.	.	.	.	.	.	8g\	-tra	.	8bny\	-tra	.
.	.	.	16C/	-tra	.	.	.	.	.	.	.
4D/	.	.	4D/	di-	.	4f#X\	di-	.	4.a\	di-	.
!	!	!	!LO:TX:t=P:problem:kreska pseudotaktowa	!	!	!LO:TX:t=P:problem:kreska pseudotaktowa	!	!	!	!	!
4C/	.	.	4C/	-cŭnt	.	4g\	-cunt	.	.	.	.
!	!	!	!	!	!	!	!	!	!LO:TX:t=P:problem:kreska pseudotaktowa	!	!
.	.	.	.	.	.	.	.	.	8a\	-cŭnt	.
=85-	=85-	=85-	=85-	=85-	=85-	=85-	=85-	=85-	=85-	=85-	=85-
2D/	.	.	4.D/	Do-	.	4.g\	Do-	.	4.a\	Do-	.
.	.	.	8D/	-mi-	.	8f#X\	-mi-	.	8a\	-mi-	.
!LO:TX:t=P:problem:mixed beam	!	!	!	!	!	!	!	!	!LO:N:acc=#	!	!
8GG/L	.	.	8GG/	-n(us)	.	4a\	-no	.	4bn\	-no	.
8G\	.	.	8G\	qui	.	.	.	.	.	.	.
!	!	!	!	!	!	!LO:TX:t=P:problem:kreska pseudotaktowa	!	!	!LO:TX:t=P:problem:kreska pseudotaktowa	!	!
8F\	.	.	8F\	con-	.	4r	.	.	4r	.	.
!LO:TX:t=P:problem:kreska pseudotaktowa	!	!	!LO:TX:t=P:problem:kreska pseudotaktowa	!	!	!	!	!	!	!	!
8Eny\J	.	.	8Eny\	-tra	.	.	.	.	.	.	.
4D/	.	.	8D/	di-	.	8r	.	.	8r	.	.
.	.	.	8D/	-cŭnt	.	8fny\	qŭi	.	8dd\	qŭi	.
4E\	.	.	8E\	con-	.	8e\	con-	.	8cc\	con-	.
!	!	!	!	!	!	!	!	!	!LO:N:acc=#	!	!
.	.	.	8E\	-tra	.	8d\	-tra	.	8bn\	-tra	.
4F\	.	.	4F\	di-	.	(8c\L	di-	.	(8a\L	di-	.
.	.	.	.	.	.	8d\J)	.	.	8b\J)	.	.
!	!	!	!LO:TX:t=P:problem:kreska pseudotaktowa	!	!	!LO:TX:t=P:problem:kreska pseudotaktowa	!	!	!LO:TX:t=P:problem:kreska pseudotaktowa	!	!
4C/	.	.	4C/	-cunt	.	4e\	-cunt	.	4cc\	-cŭnt	.
=86-	=86-	=86-	=86-	=86-	=86-	=86-	=86-	=86-	=86-	=86-	=86-
2G\	.	.	8.G\	Do-	.	8.d\	do-	.	8.b\	do-	.
.	.	.	16G\	-mi-	.	16d\	-mi-	.	16b\	-mi-	.
.	.	.	8G\	-no	.	8d\	-no	.	8b\	-no	.
.	.	.	8r	.	.	8r	.	.	8r	.	.
!	!LO:DY:b:t=f.	!LO:DY:a:t=fort	!LO:LB:g=original	!	!LO:DY:a:t=forte	!	!	!LO:DY:a:t=forte	!	!	!LO:DY:b:t=forte
4D/	f	f	8.D/	pe-	f	8.f\	pe-	f	8.dd\	pe-	f
.	.	.	16D/	-re-	.	16f\	-re-	.	16dd\	-re-	.
4r	.	.	8D/	-ŭnt	.	8f\	-ŭnt	.	8dd\	-ŭnt.	.
!	!	!	!LO:TX:t=P:problem:kreska pseudotaktowa	!	!	!LO:TX:t=P:problem:kreska pseudotaktowa	!	!	!LO:TX:t=P:problem:kreska pseudotaktowa	!	!
.	.	.	8r	.	.	8r	.	.	8r	.	.
*	*	*	*	*	*	*	*ij	*	*	*	*
!	!LO:DY:b:t=p.	!LO:DY:a:t=pian	!	!	!LO:DY:a:t=piano	!	!	!LO:DY:a:t=piano	!	!	!LO:DY:a:t=piano
4A\	p	p	8.A\	pe-	p	8.e\	pe-	p	8.cc\	pe-	p
.	.	.	16A\	-re-	.	16e\	-re-	.	16cc\	-re-	.
4r	.	.	8A\	-unt	.	8e\	-ŭnt	.	8cc\	-ŭnt	.
!	!	!	!	!	!	!	!	!	!LO:SIC:v:t=custos a	!	!
.	.	.	8r	.	.	8r	.	.	8r	.	.
*	*	*	*	*ij	*	*	*	*	*	*	*
!	!LO:DY:b	!LO:DY:a:t=Fort	!	!	!LO:DY:a:t=forte.	!	!	!LO:DY:a:t=forte	!LO:LB:g=original	!	!LO:DY:a:t=Fort
4F\	f	f	8.F\	pe-	f	8.f\	pe-	f	8.a\	pe-	f
.	.	.	16F\	-re-	.	16f\	-re-	.	16a\	-re-	.
4r	.	.	8F\	-unt	.	8f\	-ŭnt	.	8a\	-ŭnt	.
!	!	!	!LO:TX:t=P:problem:kreska pseudotaktowa	!	!	!LO:SIC:v:t=custos e	!	!	!LO:TX:t=P:problem:kreska pseudotaktowa	!	!
.	.	.	8r	.	.	8r	.	.	8r	.	.
!LO:LB:g=original	!	!	!	!	!	!LO:LB:g=original	!	!	!	!	!
=87-	=87-	=87-	=87-	=87-	=87-	=87-	=87-	=87-	=87-	=87-	=87-
*	*	*	*	*	*	*	*	*	*	*ij	*
!	!	!LO:DY:a:t=p.	!	!	!LO:DY:a:t=piano	!	!	!LO:DY:a:t=pian	!	!	!LO:DY:b:t=piano
4C/	.	p	8.C/	pe-	p	8.e\	pe-	p	8.g/	pe-	p
.	.	.	16C/	-re-	.	16e\	-re-	.	16g/	-re-	.
4r	.	.	8C/	-unt	.	8e\	-ŭnt	.	8g/	-ŭnt	.
.	.	.	8r	.	.	8r	.	.	8r	.	.
!	!	!LO:DY:a:t=f.	!	!	!LO:DY:a:t=forte	!	!	!LO:DY:a:t=f.	!	!	!LO:DY:a:t=forte
4G\	.	f	8.G\	pe-	f	8.c/	pe-	f	8.d/	pe-	f
.	.	.	16G\	-re-	.	16B/	-re-	.	16d/	-re-	.
8C/	.	.	8C/	-unt	.	8c/	-ŭnt	.	8e/	-ŭnt	.
*	*	*	*	*Xij	*	*	*	*	*	*	*
!LO:TX:t=P:problem:kreska pseudotaktowa	!	!	!LO:TX:t=P:problem:kreska pseudotaktowa	!	!	!LO:TX:t=P:problem:kreska pseudotaktowa	!	!	!LO:TX:t=P:problem:kreska pseudotaktowa	!	!
8r	.	.	8r	.	.	8r	.	.	8r	.	.
!	!	!LO:DY:a:t=p.	!	!	!LO:DY:a:t=piano	!	!	!LO:DY:a:t=pian	!	!	!LO:DY:a:t=piano
4G\	.	p	8.G\	pe-	p	8.c/	pe-	p	8.d/	pe-	p
.	.	.	16G\	-re-	.	16B/	-re-	.	16d/	-re-	.
8C/	.	.	8C/	-unt	.	8c/	-ŭnt	.	8e/	-ŭnt	.
8r	.	.	8r	.	.	8r	.	.	8r	.	.
*	*	*	*	*ij	*	*	*Xij	*	*	*Xij	*
!	!	!	!	!	!	!	!	!LO:DY:a:t=pp.	!	!	!
4GG/	.	.	8.GG/	pe-	.	8.c/	pe-	pp	8.d/	pe-	.
.	.	.	16GG/	-re-	.	16B/	-re-	.	16d/	-re-	.
8C/	.	.	8CC/	-unt	.	8c/	-ŭnt.	.	8e/	-ŭnt.	.
*	*	*	*	*Xij	*	*	*	*	*	*	*
8r	.	.	8r	.	.	8r	.	.	8r	.	.
=	=	=	=	=	=	=	=	=	=	=	=
*-	*-	*-	*-	*-	*-	*-	*-	*-	*-	*-	*-
!!!system-decoration: [(s1,s2,s3)]s4
!!!ENC: Filip Voros
!!!END: 2022-01-29
!!!ENC: Urszula Świątek
!!!END: 2022-02-20
!!!YEC: Copyright 2022 Narodowy Instytut Fryderyka Chopina (https://polishscores.org)
!!!YEM: License CC-BY-4.0 (https://creativecommons.org/licenses/by/4.0)
